!!!!SEGMENT: pl-sa--77-a-ii-17--005_kotowicz--passio-ex-c-moll-orabat-autem-jesus.krn
!!!cenid: 17xx:345
!!!COM: Kotowicz
!!!COM-rismid: pe41024678
!!!CDT:
!!!CNT:
!!!OPR: Passio ex c-moll
!!!OTL: Orabat autem Jesus
!!!OMV: 005
!!!PDT: 1767
!!!AGN:
!!!SMS-siglum: PL-SA
!!!SMS-shelfmark: 77/A II 17
!!!SMS-shelfwork: 001-005 M
!!!SMS-variant:
!!!SMS-altvar:
!!!NIFC-rismid: 1001077252
!!!URL-scan: http://bc.bdsandomierz.pl/dlibra/publication/1354/edition/1322/content
!!!ONB-nifc: UWAGA: części Passio: Passio Domini nostri, Płaczcie angeli, Aprehendit ergo Pilatus, Coś uczyniło źródło niewinności, Orabat autem Jesus, Qui passus est
!!!key: E-
**kern	**fba	**kern	**dynam	**kern	**dynam	**kern	**text	**kern	**text	**dynam	**kern	**kern	**kern	**dynam
*	*	*group3	*	*group3	*	*group2	*	*group2	*	*	*group1	*group1	*	*
*part8	*	*part7	*part7	*part6	*part6	*part5	*part5	*part4	*part4	*part4	*part3	*part2	*part1	*part1
*staff8	*	*staff7	*	*staff6	*	*staff5	*staff5	*staff4	*staff4	*	*staff3	*staff2	*staff1	*
*I"ORGANO	*	*I"Violino Secundo	*	*I"Violino: Primo..	*	*I"Baßo	*	*I"Canto	*	*	*I"Corno Secundo Ex Dis	*I"Corno Primo Ex Diſ	*I"Oboe	*
*I'org	*	*I'vl 2	*	*I'vl 2	*	*I'B	*	*I'S	*	*	*I'cor 2 in E|b	*I'cor 1 in E|b	*I'ob	*
*Iorgan	*	*Ivioln	*	*Ivioln	*	*Ibass	*	*Isoprn	*	*	*Icor	*Icor	*Ioboe	*
*ICklav	*	*ICstr	*	*ICstr	*	*ICvox	*	*ICvox	*	*	*ICbras	*ICbras	*ICww	*
*IGcont	*	*	*	*	*	*	*	*	*	*	*	*	*	*
*clefF4	*	*clefG2	*	*clefG2	*	*clefF4	*	*clefC1	*	*	*clefG2	*clefG2	*clefG2	*
*	*	*	*	*	*	*	*	*	*	*	*ITrd5c9	*ITrd5c9	*	*
*k[b-e-a-]	*	*k[a-b-e-]	*	*k[a-b-e-]	*	*k[b-e-a-]	*	*k[a-b-e-]	*	*	*k[b-e-a-]	*k[b-e-a-]	*k[b-a-e-]	*
*E-:	*	*E-:	*	*E-:	*	*E-:	*	*E-:	*	*	*E-:	*E-:	*E-:	*
*M4/4	*	*	*	*M4/4	*	*M4/4	*	*M4/4	*	*	*M4/4	*M4/4	*M4/4	*
*met(C.)	*	*	*	*met(C.)	*	*met(C.)	*	*met(C.)	*	*	*met(C.)	*met(C.)	*met(C.)	*
=1	=1	=1	=1	=1	=1	=1	=1	=1	=1	=1	=1	=1	=1	=1
*all\right	*	*all\right	*	*all\right	*	*all\right	*	*all\right	*	*	*all\right	*all\right	*all\right	*
!LO:TX:a:t=P:problem:znaki BB- E- A-	!	!	!	!	!	!LO:TX:a:i:t=Lente	!	!LO:TX:a:i:t=Fresco	!	!	!	!	!	!
!LO:TX:a:i:t=Lenliſsimae	!	!LO:TX:a:t=Adagio	!	!	!	!LO:TX:a:t=P:problem:znaki BB- E- A-	!	!LO:TX:a:t=P:problem:znaki a- b- ee-	!	!	!	!LO:TX:a:i:t=Adagio	!LO:TX:a:t=Pars \n3tia	!
!LO:TX:a:t=Pars \n3tia	!	!LO:TX:a:t=Pars \n3tia&colon;	!	!LO:TX:a:t=Pars \n3tia	!	!LO:TX:a:t=Pars \n3tia	!	!LO:TX:a:t=Pars \nTertia	!	!	!LO:TX:a:t=Pars \n3tia	!LO:TX:a:t=Pars 3tia	!	!
16.E-\LL	.	16.e-/LL	.	16.e-/LL	.	4r	.	4r	.	.	4r	4r	16.ee-\LL	.
32E-\K	.	32e-/K	.	32e-/K	.	.	.	.	.	.	.	.	32ee-\K	.
16.E-\	.	16.e-/	.	16.e-/	.	.	.	.	.	.	.	.	16.ee-\	.
32E-\JJk	.	32e-/JJk	.	32e-/JJk	.	.	.	.	.	.	.	.	32ee-\JJk	.
16.E-\LL	.	16.e-/LL	.	16.e-/LL	.	4E-\	O-	4b-\	O-	.	4g\	4b-\	16.ee-\LL	.
32E-\K	.	32e-/K	.	32e-/K	.	.	.	.	.	.	.	.	32ee-\K	.
16.E-\	.	16.e-/	.	16.e-/	.	.	.	.	.	.	.	.	16.ee-\	.
32E-\JJk	.	32e-/JJk	.	32e-/JJk	.	.	.	.	.	.	.	.	32ee-\JJk	.
16.E-\LL	.	16.e-/LL	.	16.e-/LL	.	4A-\	-ra-	4cc\	-ra-	.	4a-\	4cc\	16.ee-\LL	.
!	!	!	!	!LO:N:vis=16	!	!	!	!	!	!	!	!	!	!
32E-\K	.	32e-/K	.	32e-/K	.	.	.	.	.	.	.	.	32ee-\K	.
16.E-\	.	16.e-/	.	16.e-/	.	.	.	.	.	.	.	.	16.ee-\	.
!	!	!	!	!LO:N:vis=16	!	!	!	!	!	!	!	!	!	!
32E-\JJk	.	32e-/JJk	.	32e-/JJk	.	.	.	.	.	.	.	.	32ee-\JJk	.
16.E-\LL	.	16.e-/LL	.	16.e-/LL	.	4G\	-bat	4b-\	-bat	.	4g\	4b-\	16.ee-\LL	.
!	!	!	!	!LO:N:vis=16	!	!	!	!	!	!	!	!	!	!
32E-\K	.	32e-/K	.	32e-/K	.	.	.	.	.	.	.	.	32ee-\K	.
16.E-\	.	16.e-/	.	16.e-/	.	.	.	.	.	.	.	.	16.ee-\	.
!	!	!	!	!LO:N:vis=16	!	!	!	!	!	!	!	!	!	!
32E-\JJk	.	32e-/JJk	.	32e-/JJk	.	.	.	.	.	.	.	.	32ee-\JJk	.
!	!	!	!	!LO:LB:g=original	!	!	!	!	!	!	!	!	!	!
=2	=2	=2	=2	=2	=2	=2	=2	=2	=2	=2	=2	=2	=2	=2
16.E-\LL	.	16.e-/LL	.	16.e-/LL	.	4F\	au-	4a-\	au-	.	4f\	4a-\	16.ee-\LL	.
32E-\K	.	32e-/K	.	32e-/K	.	.	.	.	.	.	.	.	32ee-\K	.
16.E-\	.	16.e-/	.	16.e-/	.	.	.	.	.	.	.	.	16.ee-\	.
32E-\JJk	.	32e-/JJk	.	32e-/JJk	.	.	.	.	.	.	.	.	32ee-\JJk	.
16.E-\LL	.	16.e-/LL	.	16.e-/LL	.	4E-\	-tem	4g\	-tem	.	4e-\	4g\	16.ee-\LL	.
!	!	!LO:N:vis=16	!	!	!	!	!	!	!	!	!	!	!	!
32E-\K	.	32e-/K	.	32e-/K	.	.	.	.	.	.	.	.	32ee-\K	.
16.E-\	.	16.e-/	.	16.e-/	.	.	.	.	.	.	.	.	16.ee-\	.
32E-\JJk	.	32e-/JJk	.	32e-/JJk	.	.	.	.	.	.	.	.	32ee-\JJk	.
!LO:LB:g=original	!	!LO:LB:g=original	!	!	!	!	!	!	!	!	!	!	!	!
*	*	*	*	*	*	*	*	*	*	*	*	*2\right	*	*
16.B-\LL	.	16.b-\LL	.	16.b-\LL	.	4E-\	Je-	2f/	Je-	.	2B-/	2f\	16bb-\LL	.
.	.	.	.	.	.	.	.	.	.	.	.	.	16bb-\	.
32B-\K	.	32b-\K	.	32b-\K	.	.	.	.	.	.	.	.	.	.
16.B-\	.	16.b-\	.	16.b-\	.	.	.	.	.	.	.	.	16bb-\	.
.	.	.	.	.	.	.	.	.	.	.	.	.	16bb-\JJ	.
32B-\JJk	.	32b-\JJk	.	32b-\JJk	.	.	.	.	.	.	.	.	.	.
16.BB-/LL	.	16.B-/LL	.	16.B-/LL	.	4D\	.	.	.	.	.	.	16b-\LL	.
.	.	.	.	.	.	.	.	.	.	.	.	.	16b-\	.
32BB-/K	.	32B-/K	.	32B-/K	.	.	.	.	.	.	.	.	.	.
16.BB-/	.	16.B-/	.	16.B-/	.	.	.	.	.	.	.	.	16b-\	.
.	.	.	.	.	.	.	.	.	.	.	.	.	16b-\JJ	.
32BB-/JJk	.	32B-/JJk	.	32B-/JJk	.	.	.	.	.	.	.	.	.	.
!	!	!	!	!	!	!	!	!	!	!	!	!	!LO:LB:g=original	!
=3	=3	=3	=3	=3	=3	=3	=3	=3	=3	=3	=3	=3	=3	=3
!	!	!LO:TX:t=P:problem:mixed beam	!	!LO:TX:t=P:problem:mixed beam	!	!	!	!	!	!	!	!	!LO:TX:t=P:problem:mixed beam	!
4E-\	.	8e-/L	.	8e-/L	.	4E-\	-sus	4e-/	-sus	.	4E-/	4g\	8e-/L	.
.	.	8b-\	.	8ee-\	.	.	.	.	.	.	.	.	8ee-\	.
4BB-/	.	8dd\	.	8gg\	.	4BB-/	o-	4ff\	O-	.	4B-/	4f\	8gg\	.
.	.	8ff\J	.	8bb-\J	.	.	.	.	.	.	.	.	8bb-\J	.
4E-\	.	8ee-\L	.	8gg\L	.	4E-/	-ra-	4gg\	-ra-	.	4e-/	4g\	8gg\L	.
.	.	8gg\	.	8bb-\	.	.	.	.	.	.	.	.	8bb-\	.
4BB-/	.	8dd\	.	8ff\	.	4BB-/	-bat	4ff\	-bat	.	4B-/	4f\	8ff\	.
.	.	8ff\J	.	8bb-\J	.	.	.	.	.	.	.	.	8bb-\J	.
!	!	!	!	!	!	!	!	!LO:LB:g=original	!	!	!	!	!	!
=4	=4	=4	=4	=4	=4	=4	=4	=4	=4	=4	=4	=4	=4	=4
*2\right	*	*	*	*	*	*2\right	*	*2\right	*	*	*2\right	*	*	*
2F\	.	8cc\L	.	8ee-\L	.	2F\	Je-	2ee-\	Je-	.	2f\	2aX\	8ee-\L	.
.	.	8ee-\	.	8bb-\	.	.	.	.	.	.	.	.	8bb-\	.
.	.	8an\	.	8cc\	.	.	.	.	.	.	.	.	8cc\	.
.	.	8cc\J	.	8aan\J	.	.	.	.	.	.	.	.	8aan\J	.
!	!	!	!	!LO:TX:t=P:problem:mixed beam	!	!	!	!	!	!	!	!	!LO:TX:t=P:problem:mixed beam	!
4BB-/	.	8dd\L	.	8bb-\L	.	4BB-/	-sus	4dd\	-sus	.	4f\	4b-\	8bb-\L	.
.	.	8b-\	.	8b-/	.	.	.	.	.	.	.	.	8b-/	.
4C/	.	8dd\	.	8ff\	.	4C/	pro	8ff\L	pro	.	8B-\L	8f\L	8ff\	.
.	.	8ee-\J	.	8gg\J	.	.	.	8gg\J	.	.	8e-\J	8g\J	8gg\J	.
!	!	!	!	!	!	!LO:LB:g=original	!	!	!	!	!	!	!	!
=5	=5	=5	=5	=5	=5	=5	=5	=5	=5	=5	=5	=5	=5	=5
4AA-/	.	8ff\L	.	8aa-\L	.	4AA-/	Cru-	8.aa-\L	Cru-	.	8f\L	8a-X\L	8aa-\L	.
.	.	8ee-X\	.	8gg\	.	.	.	.	.	.	8e-\	8g\	8gg\	.
.	.	.	.	.	.	.	.	16gg\Jk	.	.	.	.	.	.
8B-\L	.	8a-X\	.	8ff\	.	8A-\	-ci-	8ff\	-ci-	.	8a-\	8cc\	8ff\	.
8An\J	.	8g\J	.	8ee-\J	.	8G\	-fi-	8ee-\	-fi-	.	8g\J	8b-\J	8ee-\J	.
!	!	!	!	!LO:LB:g=original	!	!	!	!	!	!	!	!	!	!
4B-\	.	16b-/LL	.	16dd\LL	.	8.B-\	-gen-	8.dd\	gen-	.	8f\L	8a-\L	16dd\LL	.
.	.	16dd/	.	16ff\	.	.	.	.	.	.	.	.	16ff\	.
.	.	16b-/	.	16dd\	.	.	.	.	.	.	8f\	8a-\	16dd\	.
.	.	16f/JJ	.	16b-\JJ	.	16B-\	-ti-	16dd\	-ti-	.	.	.	16b-\JJ	.
8G\L	.	16b-/LL	.	16ee-\LL	.	8G\	-b(us)	8ee-\	-b(us)	.	8e-\	8g\	16ee-\LL	.
.	.	16g/	.	16cc\	.	.	.	.	.	.	.	.	16cc\	.
8A-X\J	.	16a-/	.	16ff\	.	8A-\	se	8ff\	ſe	.	8f\J	8a-\J	16ff\	.
.	.	16ff\JJ	.	16aa-\JJ	.	.	.	.	.	.	.	.	16aa-\JJ	.
=6	=6	=6	=6	=6	=6	=6	=6	=6	=6	=6	=6	=6	=6	=6
!	!	!LO:TX:t=P:problem:mixed beam	!	!LO:TX:t=P:problem:mixed beam	!	!	!	!	!	!	!	!	!LO:TX:t=P:problem:mixed beam	!
4B-\	.	8ee-\L	.	8gg\L	.	4B-\	di-	4ee-\	di-	.	4g\	4b-\	8gg\L	.
.	.	8b-\	.	8ee-\	.	.	.	.	.	.	.	.	8ee-\	.
4BB-/	.	8d/	.	8f/	.	4BB-/	[[cens]]	4dd\	.	.	4f\	4a-\	8f/	.
.	.	8f/J	.	8dd\J	.	.	.	.	.	.	.	.	8dd\J	.
!	!	!LO:LB:g=original	!	!LO:TX:t=P:problem:mixed beam	!	!	!	!	!	!	!LO:LB:g=original	!LO:LB:g=original	!	!
2E-\	.	8e-/L	.	8ee-\L	.	2E-\	-cens	2ee-\	-cens	.	2e-\	2g\	8ee-\L	.
.	.	8b-/	.	8b-\	.	.	.	.	.	.	.	.	8b-\	.
.	.	8g/	.	8g/	.	.	.	.	.	.	.	.	8g\	.
.	.	8e-/J	.	8e-/J	.	.	.	.	.	.	.	.	8e-\J	.
=7	=7	=7	=7	=7	=7	=7	=7	=7	=7	=7	=7	=7	=7	=7
!	!	!	!	!	!LO:DY:b:rj	!LO:TX:a:t=Solo	!	!LO:TX:a:t=3	!	!	!	!	!	!
0r	.	4e-/	.	4g/	p	4B-\	Pa-	0r	.	.	4E-/	4E-/	4g/	.
!	!	!	!	!	!	!	!	!	!	!	!	!	!LO:TX:b:t=g	!
.	.	8e-/L	.	8g/L	.	8B-\	-ter	.	.	.	4r	4r	8g/L	.
!	!	!	!	!	!	!	!	!	!	!	!	!	!LO:TX:b:t=f	!
.	.	8B-/J	.	8f/J	.	8A-\	di-	.	.	.	.	.	8f/J	.
.	.	.	.	.	.	8qqG/	.	.	.	.	.	.	.	.
!	!	!LO:TX:t=P:problem:mixed beam	!	!	!	!	!	!	!	!	!	!	!	!
.	.	8e-/L	.	4e-/	.	4G\	-mit-	.	.	.	8r	8r	4e-/	.
.	.	8ee-\	.	.	.	.	.	.	.	.	8E-/L	8E-/L	.	.
.	.	8b-\	.	4e-/	.	4G\	-te	.	.	.	8E-/	8E-/	4e-/	.
.	.	8g\J	.	.	.	.	.	.	.	.	8E-/J	8E-/J	.	.
!	!	!	!	!	!	!	!	!	!	!	!	!	!LO:LB:g=original	!
=8	=8	=8	=8	=8	=8	=8	=8	=8	=8	=8	=8	=8	=8	=8
.	.	8r	.	8r	.	8r	.	.	.	.	4E-/	4E-/	8r	.
*	*	*	*	*	*	*	*ij	*	*	*	*	*	*	*
.	.	8e-/L	.	8g/	.	8B-\	di-	.	.	.	.	.	8g/	.
.	.	8e-/	.	8a-/L	.	8c\	-mit-	.	.	.	4r	4r	8a-/L	.
.	.	8B-/J	.	8G/J	.	8E-\	-te	.	.	.	.	.	8g/J	.
*	*	*	*	*	*	*	*Xij	*	*	*	*	*	*	*
.	.	8B-/L	.	8G/L	.	8E-\	il-	.	.	.	4BB-/	4BB-/	8g/L	.
.	.	8B-/	.	8G/	.	8D\	-lis	.	.	.	.	.	8g/J	.
!	!	!	!	!	!	!LO:LB:g=original	!	!	!	!	!	!	!	!
.	.	8B-/	.	8d/	.	8F\	qui-	.	.	.	4r	4r	8dd\L	.
.	.	8B-/J	.	8e-/J	.	8G\	-a	.	.	.	.	.	8ee-\J	.
=9	=9	=9	=9	=9	=9	=9	=9	=9	=9	=9	=9	=9	=9	=9
!	!	!	!	!	!	!	!	!	!	!	!LO:TX:a:t=1.	!LO:TX:a:t=1.	!	!
1r	.	4B-/	.	8f/L	.	8A-\	neſ-	1r	.	.	1r	1r	8ff\L	.
.	.	.	.	8f/	.	8A-\	-sci-	.	.	.	.	.	8ff\	.
.	.	4r	.	8e-/	.	8G\	-unt	.	.	.	.	.	8ee-\	.
.	.	.	.	8d/J	.	8F\	quid	.	.	.	.	.	8dd\J	.
!	!	!	!	!LO:LB:g=original	!	!	!	!	!	!	!	!	!	!
!	!	!LO:TX:t=P:problem:mixed beam	!	!LO:TX:t=P:problem:mixed beam	!	!	!	!	!	!	!	!	!	!
.	.	8B-/L	.	8e-/L	.	16G\	fa-	.	.	.	.	.	8ee-\L	.
.	.	.	.	.	.	16E-\	-ci-	.	.	.	.	.	.	.
.	.	8B-/	.	8d/	.	16F\	-unt	.	.	.	.	.	8dd\	.
.	.	.	.	.	.	16B-\	di-	.	.	.	.	.	.	.
.	.	8b-\	.	8b-\	.	8B-\	-mit-	.	.	.	.	.	8bb-\	.
.	.	8B-/J	.	8B-/J	.	8BB-/	-te	.	.	.	.	.	8b-\J	.
=10	=10	=10	=10	=10	=10	=10	=10	=10	=10	=10	=10	=10	=10	=10
!	!	!	!	!	!	!LO:TX:a:t=Tutti	!	!	!	!	!	!	!	!
8E-\L	.	8e-/L	.	8e-/L	.	4E-\	a-	4b-\	a-	.	8e-\L	8g\L	8e-/L	.
8E-\	.	8e-/	.	8g/	.	.	.	.	.	.	16e-\L	16g\L	8g/	.
.	.	.	.	.	.	.	.	.	.	.	16d\JJ	16a-\JJ	.	.
8E-\	.	8g/	.	8b-/	.	8E-\	-it-	8b-\	-it	.	16e-\LL	16g\LL	8b-/	.
.	.	.	.	.	.	.	.	.	.	.	16f\	16a-\	.	.
8E-\J	.	8b-/J	.	8ee-/J	.	8E-\	-ad	8b-\	ad	.	16e-\	16g\	8ee-/J	.
.	.	.	.	.	.	.	.	.	.	.	16f\JJ	16a-\JJ	.	.
!LO:LB:g=original	!	!	!	!	!	!	!	!LO:LB:g=original	!	!	!	!	!	!
!LO:TX:t=P:problem:mixed beam	!	!	!	!	!	!	!	!	!	!	!	!	!	!
8E-\L	.	8e-/L	.	8g\L	.	8G\	Ee-	8ee-\	e-	.	8g\L	8b-\L	8g\L	.
8E-\	.	8g/	.	8b-\	.	8G\	-um	8ee-\	-um	.	8g\	8b-\	8b-\	.
8B-\	.	8b-/	.	8ee-\	.	4B-\	la-	4ee-\	la-	.	8g\	8b-\	8ee-\	.
8BB-/J	.	8ee-/J	.	8gg\J	.	.	.	.	.	.	8g\J	8b-\J	8gg\J	.
=11	=11	=11	=11	=11	=11	=11	=11	=11	=11	=11	=11	=11	=11	=11
8BB-/L	.	8b-\L	.	8b-\L	.	4BB-/	-tro	4dd\	-tro	.	4f\	4a-\	8b-\L	.
8BB-/	.	8ff\	.	8bb-\	.	.	.	.	.	.	.	.	8bb-\	.
!	!	!	!	!	!	!LO:LB:g=original	!	!	!	!	!	!	!	!
8BB-/	.	8dd\	.	8ff\	.	4r	.	4r	.	.	8r	8r	8ff\	.
8BB-/J	.	8b-\J	.	8dd\J	.	.	.	.	.	.	8f\	8a-\	8dd\J	.
!	!	!LO:LB:g=original	!	!	!	!	!	!	!	!	!	!	!	!
4BB-/	.	8f/	.	8b-\	.	4r	.	4r	.	.	8B-/	8f\	8b-\	.
.	.	4ff\	.	4aa-\	.	.	.	.	.	.	4f\	4a-\	4aa-\	.
4r	.	.	.	.	.	8r	.	8r	.	.	.	.	.	.
.	.	16ee-\LL	.	16gg\LL	.	8BB-/	ad	8ff\	ad	.	16e-\LL	16g\LL	16gg\LL	.
.	.	16dd\JJ	.	16ff\JJ	.	.	.	.	.	.	16d\JJ	16f\JJ	16ff\JJ	.
=12	=12	=12	=12	=12	=12	=12	=12	=12	=12	=12	=12	=12	=12	=12
8E-\L	.	16ee-\LL|	.	8gg\L	.	8E-\	dex-	8gg\	Dex-	.	16e-\LL	16g\LL	8gg\L	.
.	.	(16b-\	.	.	.	.	.	.	.	.	16g\	16b-\	.	.
8E-\	.	16cc\	.	16aa-\L	.	16E-\	-te-	16aa-\	-te-	.	16a-\	16cc\	16aa-\L	.
.	.	16b-\JJ)	.	16gg\JJ	.	16E-\	-ra	16gg\	-ra	.	16g\JJ	16b-\JJ	16gg\JJ	.
8A-\	.	8a-/L	.	8ff\L	.	4AA-/	pe-	8ff\L	pe-	.	8f\L	(8a-\L	8ff\L	.
8A-\J	.	8g/J	.	8ee-\J	.	.	.	8ee-\J	.	.	8e-\J	8g\J)	8ee-\J	.
!	!	!	!	!	!	!LO:SIC:v:l:s=-dens	!	!	!	!	!	!	!	!
4B-\	.	8f/	.	8dd\	.	4BB-/	-dns	4dd\	-dens	.	8B-/	8f\	8dd\	.
.	.	4a-/	.	4ff\	.	.	.	.	.	.	4f\	4a-\	4ff\	.
8r	.	.	.	.	.	4r	.	4r	.	.	.	.	.	.
8BB-/	.	16g/LL	.	16ee-\LL	.	.	.	.	.	.	16e-\LL	16g\LL	16ee-\LL	.
.	.	16f/JJ	.	16dd\JJ	.	.	.	.	.	.	16d\JJ	16f\JJ	16dd\JJ	.
!	!	!	!	!	!	!	!	!	!	!	!	!LO:LB:g=original	!LO:LB:g=original	!
=13	=13	=13	=13	=13	=13	=13	=13	=13	=13	=13	=13	=13	=13	=13
!	!	!	!	!	!	!	!	!LO:TX:a:t=3	!	!	!	!	!	!
8E-/L	.	8g/	.	8ee-\	.	00r	.	0r	.	.	8e-\	8g\	8ee-\	.
8E-/	.	4gg\	.	4bb-\	.	.	.	.	.	.	4g\	4b-\	4bb-\	.
8AA-/	.	.	.	.	.	.	.	.	.	.	.	.	.	.
8AA-/J	.	16ff\LL	.	16aa-\LL	.	.	.	.	.	.	16f\LL	16a-\LL	16aa-\LL	.
.	.	16ee-\JJ	.	16gg\JJ	.	.	.	.	.	.	16e-\JJ	16g\JJ	16gg\JJ	.
!	!	!	!	!LO:LB:g=original	!	!	!	!	!	!	!	!	!LO:TX:t=P:problem:mixed beam	!
!	!	!LO:TX:t=P:problem:mixed beam	!	!LO:TX:t=P:problem:mixed beam	!	!	!	!	!	!	!	!	!	!
8BB-/L	.	16dd\LL	.	16ff\LL	.	.	.	.	.	.	8B-/	8f\	16ff\LL	.
.	.	16a-/	.	16g/	.	.	.	.	.	.	.	.	16g/	.
8GG/	.	16f#X/	.	16an/	.	.	.	.	.	.	8r	8r	16an/	.
.	.	16g/JJ	.	16bn/JJ	.	.	.	.	.	.	.	.	16bn/JJ	.
8GG/	.	16an/LL	.	16cc\LL	.	.	.	.	.	.	4r	4r	16cc\LL	.
.	.	16b-/	.	16dd\	.	.	.	.	.	.	.	.	16dd\	.
8GG/J	.	16cc/	.	16ee-\	.	.	.	.	.	.	.	.	16ee-\	.
.	.	16dd/JJ	.	16ff\JJ	.	.	.	.	.	.	.	.	16ff\JJ	.
!	!	!	!	!	!	!	!	!	!	!	!LO:LB:g=original	!	!	!
=14	=14	=14	=14	=14	=14	=14	=14	=14	=14	=14	=14	=14	=14	=14
!	!	!	!	!	!	!	!	!	!	!	!LO:TX:a:t=5	!	!	!
4C/	.	8ee-\	.	8gg\	.	.	.	.	.	.	00r	00r	8gg\	.
.	.	4ee-\	.	4gg\	.	.	.	.	.	.	.	.	4gg\	.
8r	.	.	.	.	.	.	.	.	.	.	.	.	.	.
8C/	.	16dd\LL	.	(16ff\LL	.	.	.	.	.	.	.	.	16ff\LL	.
.	.	16cc\JJ	.	16ee-\JJ)	.	.	.	.	.	.	.	.	16ee-\JJ	.
!	!	!	!	!	!	!	!	!	!	!	!	!	!LO:TX:t=P:problem:mixed beam	!
4GG/	.	8bn\L	.	(16dd\LL	.	.	.	.	.	.	.	.	16dd\LL	.
.	.	.	.	16g\JJ)	.	.	.	.	.	.	.	.	16g/JJ	.
.	.	8dd\	.	4ff\	.	.	.	.	.	.	.	.	4ff\	.
4r	.	8cc\	.	.	.	.	.	.	.	.	.	.	.	.
.	.	8b\J	.	(16ee-\LL	.	.	.	.	.	.	.	.	16ee-\LL	.
.	.	.	.	16dd\JJ)	.	.	.	.	.	.	.	.	16dd\JJ	.
!	!	!LO:PB:g=original	!	!	!	!	!	!	!	!	!	!	!	!
=15	=15	=15	=15	=15	=15	=15	=15	=15	=15	=15	=15	=15	=15	=15
4C/	.	8cc\	.	8ee-\	.	.	.	1r	.	.	.	.	8ee-\	.
!	!	!	!	!LO:TX:a:t=t	!	!	!	!	!	!	!	!	!	!
.	.	4g/	.	4ee-\	.	.	.	.	.	.	.	.	4ee-\	.
8r	.	.	.	.	.	.	.	.	.	.	.	.	.	.
8C/	.	(16f/LL	.	(16dd\LL	.	.	.	.	.	.	.	.	16dd\LL	.
.	.	16e-/JJ)	.	16cc\JJ)	.	.	.	.	.	.	.	.	16cc\JJ	.
4GG/	.	8d/L	.	16bn\LL	.	.	.	.	.	.	.	.	16bn\LL	.
.	.	.	.	16g\J	.	.	.	.	.	.	.	.	16g\J	.
.	.	8f/	.	8dd\J	.	.	.	.	.	.	.	.	8dd\J	.
8r	.	8e-/	.	8cc\L	.	.	.	.	.	.	.	.	8cc\L	.
8GG/	.	8d/J	.	8b\J	.	.	.	.	.	.	.	.	8b\J	.
!LO:LB:g=original	!	!	!	!	!	!	!	!	!	!	!	!	!	!
=16	=16	=16	=16	=16	=16	=16	=16	=16	=16	=16	=16	=16	=16	=16
!	!	!	!	!LO:TX:t=P:problem:mixed beam	!	!	!	!	!	!	!	!	!	!
4AA-/	.	8e-/L	.	8cc\L	.	.	.	8.gg\	Do-	.	.	.	8cc\L	.
.	.	8c/	.	8g/	.	.	.	.	.	.	.	.	8g\	.
.	.	.	.	.	.	.	.	16ff\	-mi-	.	.	.	.	.
4r	.	8Bn/	.	8e-/	.	.	.	8ee-\	-ne	.	.	.	8ee-\	.
.	.	8c/J	.	8c/J	.	.	.	8ee-\	me-	.	.	.	8cc\J	.
2r	.	4G/	.	8Bn/	.	.	.	8dd\	-men-	.	.	.	8bn\	.
.	.	.	.	4c/	.	.	.	8ff\	-to	.	.	.	4cc\	.
!	!	!	!	!	!	!	!	!LO:LB:g=original	!	!	!	!	!	!
.	.	8r	.	.	.	.	.	8ee-\	me-	.	.	.	.	.
.	.	8G/	.	8B/	.	.	.	8dd\	-i	.	.	.	8b\	.
!	!	!	!	!LO:LB:g=original	!	!	!	!	!	!	!	!	!	!
=17	=17	=17	=17	=17	=17	=17	=17	=17	=17	=17	=17	=17	=17	=17
!	!	!	!	!LO:TX:t=P:problem:mixed beam	!	!	!	!	!	!	!	!	!	!
00r	.	8c/L	.	8c/L	.	0r	.	16ee-\	Do-	.	.	.	8ccc\L	.
.	.	.	.	.	.	.	.	16dd\	-mi-	.	.	.	.	.
.	.	.	.	.	.	.	.	8qqdd/	.	.	.	.	.	.
.	.	16e-/L	.	(16cc\L	.	.	.	8cc\	-ne	.	.	.	16cc\L	.
.	.	16f/JJ	.	16dd\JJ)	.	.	.	.	.	.	.	.	16dd\JJ	.
.	.	8g/L	.	8ee-\L	.	.	.	8r	.	.	.	.	8ee-\L	.
.	.	8e-/J	.	8cc\J	.	.	.	8g\	dum	.	.	.	8cc\J	.
!	!	!	!	!	!	!	!	!	!	!	!	!	!LO:LB:g=original	!
.	.	8d/L	.	8f/L	.	.	.	8.an\	ve-	.	.	.	8f/L	.
.	.	8Bn/	.	8f/	.	.	.	.	.	.	.	.	8f/J	.
.	.	.	.	.	.	.	.	16dd\	-ne-	.	.	.	.	.
!	!	!	!	!	!	!	!	!	!	!	!	!	!LO:TX:t=P:problem:mixed beam	!
.	.	8d/	.	8g/	.	.	.	8bn\	-ris	.	.	.	8gg\L	.
.	.	8G/J	.	8G/J	.	.	.	8g\	in	.	.	.	8g/J	.
!	!	!LO:LB:g=original	!	!	!	!	!	!	!	!	!	!	!	!
=18	=18	=18	=18	=18	=18	=18	=18	=18	=18	=18	=18	=18	=18	=18
!	!	!LO:TX:t=P:problem:mixed beam	!	!LO:TX:t=P:problem:mixed beam	!	!	!	!	!	!	!	!	!	!
.	.	8c/L	.	8c/L	.	.	.	8.ccT\L	Re-	.	1r	1r	8cc\L	.
.	.	8cc\	.	8cc\	.	.	.	.	.	.	.	.	8cc\	.
.	.	.	.	.	.	.	.	32dd\LL	.	.	.	.	.	.
.	.	.	.	.	.	.	.	32ee-\JJJ	.	.	.	.	.	.
!	!	!	!	!LO:SIC:v:s=8bn\	!	!	!	!	!	!	!	!	!LO:SIC:v:s=8bn\	!
.	.	8bn\	.	8b-\	.	.	.	8.ddt\L	.	.	.	.	8b-\	.
.	.	8g\J	.	8g\J	.	.	.	.	.	.	.	.	8g\J	.
.	.	.	.	.	.	.	.	32ee-\LL	.	.	.	.	.	.
.	.	.	.	.	.	.	.	32ff\JJJ	.	.	.	.	.	.
.	.	8a-/L	.	8a-/L	.	.	.	8ee-\	.	.	.	.	8a-/L	.
.	.	8f/	.	8f/	.	.	.	16dd\LL	-gnu(m)	.	.	.	8f/	.
.	.	.	.	.	.	.	.	16cc\JJ	.	.	.	.	.	.
!	!	!	!	!	!	!	!	!LO:TX:a:t=t	!	!	!	!	!	!
.	.	8g/	.	8g/	.	.	.	4bn\	tu-	.	.	.	8g/	.
.	.	8G/J	.	8G/J	.	.	.	.	.	.	.	.	8g/J	.
=19	=19	=19	=19	=19	=19	=19	=19	=19	=19	=19	=19	=19	=19	=19
!	!	!	!	!LO:TX:t=P:problem:mixed beam	!	!	!	!	!	!	!	!	!	!
.	.	8c/L	.	8c/L	.	1r	.	8cc\	-um	.	8r	8r	8cc\L	.
!	!	!	!LO:DY:b	!	!	!	!	!	!	!	!	!	!	!
.	.	8ee-\	f	8ee-\	.	.	.	4b-X\	a-	.	8g\L	4b-\	8ee-\	.
.	.	8ee-\	.	8ee-\	.	.	.	.	.	.	8f\	.	8ee-\	.
!	!	!	!	!	!	!	!	!LO:LB:g=original	!	!	!	!	!	!
.	.	8ee-\J	.	8ee-\J	.	.	.	16a-\LL	-it	.	8e-\J	16a-\LL	8ee-\J	.
.	.	.	.	.	.	.	.	16g\JJ	.	.	.	16g\JJ	.	.
.	.	8ee-\L	.	8ee-\L	.	.	.	8cc\	il-	.	8a-\L	8cc\L	8ee-\L	.
.	.	8ee-\	.	8ee-\	.	.	.	8e-/	-li	.	8g\J	8b-\J	8ee-\	.
!	!	!	!	!	!	!	!	!LO:TX:a:t=t	!	!	!	!LO:TX:a:t=t	!	!
.	.	8ff\	.	8ff\	.	.	.	4a-\	Je-	.	4f\	4a-\	8ff\	.
!	!	!	!	!LO:TX:a:t=d	!	!	!	!	!	!	!	!	!	!
.	.	8dd\J	.	8dd\J	.	.	.	.	.	.	.	.	8dd\J	.
=20	=20	=20	=20	=20	=20	=20	=20	=20	=20	=20	=20	=20	=20	=20
!	!	!LO:TX:t=P:problem:mixed beam	!	!LO:TX:t=P:problem:mixed beam	!	!	!	!	!	!	!	!	!LO:TX:t=P:problem:mixed beam	!
.	.	8ee-\L	.	8ee-\L	.	8r	.	4g\	-sus	.	4e-\	4g\	8ee-\L	.
!	!	!	!	!	!	!LO:TX:a:t=Solo	!	!	!	!	!	!	!	!
.	.	8e-/	.	8e-/	.	4E-\	A-	.	.	.	.	.	8e-/	.
.	.	8e-/	.	8e-/	.	.	.	4r	.	.	4r	4r	8e-/	.
.	.	8e-/J	.	8e-/J	.	16F\LL	-men	.	.	.	.	.	8e-/J	.
.	.	.	.	.	.	16G\JJ	.	.	.	.	.	.	.	.
.	.	8e-/L	.	8e-/L	.	8G\	di-	2r	.	.	2r	2r	8e-/L	.
.	.	8B-/	.	8B-/	.	8F\	-co	.	.	.	.	.	8g/J	.
!	!	!	!	!	!	!LO:N:vis=8.	!	!	!	!	!	!	!	!
.	.	8e-/	.	8g/	.	8B-\	A-	.	.	.	.	.	8gg\L	.
.	.	8e-/J	.	8g/J	.	16A-\LL	-men	.	.	.	.	.	8gg\J	.
.	.	.	.	.	.	16B-\JJ	.	.	.	.	.	.	.	.
!	!	!	!	!LO:LB:g=original	!	!LO:LB:g=original	!	!	!	!	!	!	!	!
=21	=21	=21	=21	=21	=21	=21	=21	=21	=21	=21	=21	=21	=21	=21
!	!	!	!	!	!	!	!	!LO:TX:a:t=7	!	!	!LO:TX:a:t=2	!LO:TX:a:t=2	!	!
2r	.	8e-/L	.	8a-/	.	8c\	di-	00r	.	.	0r	0r	8a-/	.
.	.	8e-/	.	4f/	.	8E-\	-co	.	.	.	.	.	4f/	.
.	.	8d/	.	.	.	8E-\	ti-	.	.	.	.	.	.	.
.	.	8B-/J	.	8d/	.	8D\	-bi	.	.	.	.	.	8d/	.
8E-\L	.	2r	.	2r	.	8e-\	ho-	.	.	.	.	.	2r	.
8E-\	.	.	.	.	.	16e-\	-di e	.	.	.	.	.	.	.
.	.	.	.	.	.	16B-\	.	.	.	.	.	.	.	.
8G\	.	.	.	.	.	8B-\	me-	.	.	.	.	.	.	.
8E-\J	.	.	.	.	.	16A-\	-cum	.	.	.	.	.	.	.
.	.	.	.	.	.	16G\	.	.	.	.	.	.	.	.
!	!	!LO:LB:g=original	!	!	!	!	!	!	!	!	!	!	!	!
=22	=22	=22	=22	=22	=22	=22	=22	=22	=22	=22	=22	=22	=22	=22
8BB-\L	.	8r	.	8r	.	4F\	e-	.	.	.	.	.	8r	.
!	!	!	!	!	!	!	!	!	!	!	!	!	!LO:TX:t=P:problem:mixed beam	!
8F\	.	8f/L	.	8f/L	.	.	.	.	.	.	.	.	8f/L	.
8D\	.	8d/	.	8d/	.	8BB-/	-tis	.	.	.	.	.	8dd\	.
8BB-\J	.	8B-/J	.	8B-/J	.	8A-\	in	.	.	.	.	.	8b-\J	.
!LO:TX:t=P:problem:mixed beam	!	!	!	!	!	!	!	!	!	!	!	!	!	!
8E-\L	.	2r	.	2r	.	16G\LL	Pa-	.	.	.	.	.	2r	.
.	.	.	.	.	.	16B-\JJ	.	.	.	.	.	.	.	.
8A-\	.	.	.	.	.	16G\LL	-ra-	.	.	.	.	.	.	.
.	.	.	.	.	.	16E-\JJ	.	.	.	.	.	.	.	.
8B-\	.	.	.	.	.	8BB-\L	-di-	.	.	.	.	.	.	.
8BB-/J	.	.	.	.	.	8F\J	.	.	.	.	.	.	.	.
=23	=23	=23	=23	=23	=23	=23	=23	=23	=23	=23	=23	=23	=23	=23
.	.	.	.	.	.	8qqF/	.	.	.	.	.	.	.	.
8E-\L	.	8r	.	8r	.	4E-\	-so	.	.	.	8r	8r	8r	.
8E-\	.	4b-/	.	4gg\	.	.	.	.	.	.	4g\	4b-\	4gg\	.
8E-\	.	.	.	.	.	4r	.	.	.	.	.	.	.	.
8E-\J	.	(16a-/LL	.	16ff\LL	.	.	.	.	.	.	16f\LL	16a-\LL	16ff\LL	.
.	.	16g/JJ)	.	16ee-\JJ	.	.	.	.	.	.	16e-\JJ	16g\JJ	16ee-\JJ	.
.	.	.	.	.	.	.	.	.	.	.	.	8qqg/	.	.
8BB-/L	.	(16f/LL	.	(16dd\LL	.	2r	.	.	.	.	4B-/	4f\	16dd\LL	.
.	.	16g/)	.	16ee-\)	.	.	.	.	.	.	.	.	16ee-\	.
8BB-/	.	(16g/	.	(16ee-\	.	.	.	.	.	.	.	.	16ee-\	.
.	.	16a-/JJ)	.	16ff\JJ)	.	.	.	.	.	.	.	.	16ff\JJ	.
!	!	!	!	!	!	!	!	!	!	!	!	!	!LO:LB:g=original	!
8BB-/	.	(16dd\LL	.	(16ff\LL	.	.	.	.	.	.	4r	4r	16ff\LL	.
.	.	16ee-\)	.	16gg\)	.	.	.	.	.	.	.	.	16gg\	.
8BB-/J	.	(16ee-\	.	(16gg\	.	.	.	.	.	.	.	.	16gg\	.
.	.	16ff\JJ)	.	16aa-X\JJ)	.	.	.	.	.	.	.	.	16aa-X\JJ	.
!	!	!	!	!	!	!LO:LB:g=original	!	!	!	!	!	!	!	!
=24	=24	=24	=24	=24	=24	=24	=24	=24	=24	=24	=24	=24	=24	=24
!LO:TX:t=P:problem:mixed beam	!	!	!	!	!	!LO:TX:a:t=6	!	!	!	!	!	!	!	!
8E-\L	.	8ee-\	.	8gg\	.	00r	.	.	.	.	8r	8r	8gg\	.
8EE-/	.	4g/	.	4b-/	.	.	.	.	.	.	4g\	4b-\	4b-\	.
8EE-/	.	.	.	.	.	.	.	.	.	.	.	.	.	.
8EE-/J	.	(16f/LL	.	16a-/LL	.	.	.	.	.	.	16f\LL	16a-\LL	16a-/LL	.
.	.	16e-/JJ)	.	16g/JJ	.	.	.	.	.	.	16e-\JJ	16g\JJ	16g/JJ	.
4BB-/	.	16d/LL	.	16f/LL	.	.	.	.	.	.	16c\LL	16f\LL	16f/LL	.
.	.	(16e-/	.	16g/	.	.	.	.	.	.	16e-\	16g\	16g/	.
.	.	(16e-/)	.	16g/	.	.	.	.	.	.	16e-\	16g\	16g/	.
.	.	16f/JJ)	.	16a-/JJ	.	.	.	.	.	.	16f\JJ	16a-\JJ	16a-/JJ	.
8r	.	16f/LL	.	16a-/LL	.	.	.	.	.	.	16f\LL	16a-\LL	16a-/LL	.
.	.	(16d/	.	(16f/	.	.	.	.	.	.	16B-\	16f\	16f/	.
8BB-/	.	16e-/	.	16g/	.	.	.	.	.	.	16e-\	16g\	16g/	.
.	.	16f/JJ)	.	16a-/JJ)	.	.	.	.	.	.	16f\JJ	16a-\JJ	16a-/JJ	.
!LO:LB:g=original	!	!LO:LB:g=original	!	!LO:LB:g=original	!	!	!	!	!	!	!	!LO:LB:g=original	!	!
=25	=25	=25	=25	=25	=25	=25	=25	=25	=25	=25	=25	=25	=25	=25
8E-\L	.	8e-/L	.	16g\LL	.	.	.	0r	.	.	4e-\	8g\	16g/LL	.
.	.	.	.	16cc\	.	.	.	.	.	.	.	.	16cc/	.
8G\	.	16f/L	.	16cc\	.	.	.	.	.	.	.	8r	16cc/	.
.	.	16g/JJ	.	16dd\JJ	.	.	.	.	.	.	.	.	16dd/JJ	.
8G\	.	8f/L	.	8dd\L	.	.	.	.	.	.	4r	4r	8dd\L	.
8G\J	.	8e-/J	.	8cc\J	.	.	.	.	.	.	.	.	8cc\J	.
4G\	.	8d/	.	8bn\	.	.	.	.	.	.	2r	2r	8bn\	.
!	!	!LO:TX:a:t=dis	!	!	!	!	!	!	!	!	!	!	!	!
.	.	4ff\	.	4gg\	.	.	.	.	.	.	.	.	4gg\	.
8r	.	.	.	.	.	.	.	.	.	.	.	.	.	.
8BB-/	.	(16dd\LL	.	16ff\LL	.	.	.	.	.	.	.	.	16ff\LL	.
.	.	16cc\JJ)	.	16ee-\JJ	.	.	.	.	.	.	.	.	16ee-\JJ	.
=26	=26	=26	=26	=26	=26	=26	=26	=26	=26	=26	=26	=26	=26	=26
!	!	!	!	!	!	!	!	!	!	!	!LO:TX:a:t=6	!LO:TX:a:t=6	!	!
4GG/	.	8bn\L	.	8dd\L	.	.	.	.	.	.	00r	00r	8dd\L	.
*	*	*	*	*Xtuplet	*	*	*	*	*	*	*	*	*Xtuplet	*
.	.	16dd\L	.	24bbn\L	.	.	.	.	.	.	.	.	24bbn\L	.
.	.	.	.	24ccc\	.	.	.	.	.	.	.	.	24ccc\	.
.	.	(16ff\JJ	.	.	.	.	.	.	.	.	.	.	.	.
.	.	.	.	24ddd\JJ	.	.	.	.	.	.	.	.	24ddd\JJ	.
8r	.	8ee-\L)	.	8ccc\L	.	.	.	.	.	.	.	.	8ccc\L	.
8GG/	.	8dd\J	.	8bb\J	.	.	.	.	.	.	.	.	8bb\J	.
!	!	!LO:TX:t=P:problem:mixed beam	!	!LO:TX:t=P:problem:mixed beam	!	!	!	!	!	!	!	!	!	!
4C/	.	8ee-\L	.	8ccc\L	.	.	.	.	.	.	.	.	8ccc\L	.
.	.	8e-/	.	8g/	.	.	.	.	.	.	.	.	8gg\	.
4r	.	8d/	.	8f/	.	.	.	.	.	.	.	.	8ff\	.
.	.	8c/J	.	8e-/J	.	.	.	.	.	.	.	.	8ee-\J	.
=27	=27	=27	=27	=27	=27	=27	=27	=27	=27	=27	=27	=27	=27	=27
4GG/	.	8Bn/L	.	8d/L	.	.	.	1r	.	.	.	.	8dd\L	.
.	.	16c/L	.	16e-/L	.	.	.	.	.	.	.	.	16ee-\L	.
.	.	16d/JJ	.	16f/JJ	.	.	.	.	.	.	.	.	16ff\JJ	.
8r	.	8c/L	.	8e-/L	.	.	.	.	.	.	.	.	8ee-\L	.
8GG/	.	8Bn/J	.	8d/J	.	.	.	.	.	.	.	.	8dd\J	.
!	!	!	!	!	!	!	!	!	!	!	!	!	!LO:LB:g=original	!
16C\LL	.	16c/LL	.	16e-/LL	.	.	.	.	.	.	.	.	16e-/LL	.
16G\	.	16g/	.	16g/	.	.	.	.	.	.	.	.	16g/	.
!LO:TX:a:t=a c h a	!	!	!	!	!	!	!	!	!	!	!	!	!	!
16An\	.	16an/	.	16an/	.	.	.	.	.	.	.	.	16an/	.
16Bn\JJ	.	16bn/JJ	.	16bn/JJ	.	.	.	.	.	.	.	.	16bn/JJ	.
16c\LL	.	16cc\LL	.	16cc/LL	.	.	.	.	.	.	.	.	16cc/LL	.
16Bn\	.	16b\	.	16b/	.	.	.	.	.	.	.	.	16b/	.
16c\	.	16cc\	.	16cc/	.	.	.	.	.	.	.	.	16cc/	.
16B\JJ	.	16b\JJ	.	16b/JJ	.	.	.	.	.	.	.	.	16b/JJ	.
!	!	!LO:LB:g=original	!	!LO:LB:g=original	!	!	!	!	!	!	!	!	!	!
=28	=28	=28	=28	=28	=28	=28	=28	=28	=28	=28	=28	=28	=28	=28
8c\L	.	8cc/L	.	8cc/L	.	0r	.	2r	.	.	.	.	8cc\L	.
8A-\	.	8a-/	.	8a-/	.	.	.	.	.	.	.	.	8a-\	.
8F\	.	8f/	.	8f/	.	.	.	.	.	.	.	.	8f\	.
8G\J	.	8g/J	.	8g/J	.	.	.	.	.	.	.	.	8g\J	.
4C/	.	4c/	.	4c/	.	.	.	4cc\	Di-	.	.	.	4cc\	.
4r	.	4r	.	4r	.	.	.	(16cc\LL	-xit	.	.	.	4r	.
.	.	.	.	.	.	.	.	16dd\	.	.	.	.	.	.
.	.	.	.	.	.	.	.	16ee-\	.	.	.	.	.	.
.	.	.	.	.	.	.	.	16ff\JJ)	.	.	.	.	.	.
=29	=29	=29	=29	=29	=29	=29	=29	=29	=29	=29	=29	=29	=29	=29
0r	.	8r	.	8r	.	.	.	8gg\L	au-	.	.	.	8r	.
.	.	8e-/L	.	8g/L	.	.	.	8cc\J	.	.	.	.	8g/L	.
.	.	8d/	.	8g/	.	.	.	(8bn\L	-tem	.	.	.	8g/	.
.	.	8e-/J	.	8g/J	.	.	.	8cc\J)	.	.	.	.	8g/J	.
!	!	!	!	!LO:TX:t=P:problem:mixed beam	!	!	!	!	!	!	!	!	!LO:TX:t=P:problem:mixed beam	!
.	.	8G/L	.	8G/L	.	.	.	4ff\	Ma-	.	.	.	8g/L	.
.	.	8g/	.	8dd\	.	.	.	.	.	.	.	.	8dd\	.
.	.	8g/	.	8cc\	.	.	.	(8ee-\L	-tri	.	.	.	8cc\	.
!	!	!	!	!LO:TX:a:t=P:problem:# above	!	!	!	!	!	!	!	!	!LO:SIC:v:s=8bn\J	!
.	.	8G/J	.	8bn\J	.	.	.	8dd\J)	.	.	.	.	8b-\J	.
=30	=30	=30	=30	=30	=30	=30	=30	=30	=30	=30	=30	=30	=30	=30
!	!	!	!	!LO:SIC:v:s=8qbn/	!	!	!	!	!	!	!	!	!LO:SIC:v:s=8qbn/	!
.	.	.	.	8qb-/	.	.	.	.	.	.	.	.	8qqb-/	.
.	.	8c/	.	4ccT\	.	8r	.	8ee-\L	su-	.	0r	0r	4cc\	.
.	.	.	.	.	.	.	.	8qqdd/J	.	.	.	.	.	.
.	.	8r	.	.	.	8C/	Mu-	8cc\JL	-ae	.	.	.	.	.
.	.	4r	.	4r	.	(16C/LL	-ti-	4r	.	.	.	.	4r	.
.	.	.	.	.	.	16D/JJ)	.	.	.	.	.	.	.	.
.	.	.	.	.	.	(16E-\LL	-e	.	.	.	.	.	.	.
.	.	.	.	.	.	16F\JJ)	.	.	.	.	.	.	.	.
!	!	!	!	!	!	!	!	!LO:LB:g=original	!	!	!	!	!	!
.	.	8r	.	8r	.	4G\	ec-	2r	.	.	.	.	8r	.
.	.	8Bn/L	.	8d/L	.	.	.	.	.	.	.	.	8dd\L	.
.	.	8c/	.	8e-/	.	4G\	-ce	.	.	.	.	.	8ee-\	.
.	.	8B/J	.	8d/J	.	.	.	.	.	.	.	.	8dd\J	.
=31	=31	=31	=31	=31	=31	=31	=31	=31	=31	=31	=31	=31	=31	=31
!	!	!	!	!	!	!	!	!LO:TX:a:t=1.	!	!	!	!	!	!
8GG/L	.	2r	.	2r	.	8Bn\	ec-	1r	.	.	.	.	2r	.
8GG/	.	.	.	.	.	8c\	-ce	.	.	.	.	.	.	.
8GG/	.	.	.	.	.	8d\	Fi-	.	.	.	.	.	.	.
8GG/J	.	.	.	.	.	16c\	-li-	.	.	.	.	.	.	.
.	.	.	.	.	.	16Bn\	-us	.	.	.	.	.	.	.
8C\L	.	8r	.	8r	.	4c\	tu-	.	.	.	.	.	8r	.
8G\	.	8e-/L	.	8cc/L	.	.	.	.	.	.	.	.	8cc\L	.
8E-\	.	8g/	.	8g/	.	4C/	-us	.	.	.	.	.	8g\	.
8C\J	.	8c/J	.	8c/J	.	.	.	.	.	.	.	.	8cc\J	.
!LO:LB:g=original	!	!LO:LB:g=original	!	!	!	!	!	!	!	!	!	!	!	!
=32	=32	=32	=32	=32	=32	=32	=32	=32	=32	=32	=32	=32	=32	=32
!	!	!	!	!	!	!LO:TX:a:t=Tuti	!	!	!	!	!	!	!	!
8E-\L	.	16e-/LL	.	16e-/LL	.	8r	.	8r	.	.	8r	8r	16e-/LL	.
.	.	16g/	.	16g/	.	.	.	.	.	.	.	.	16g/	.
8E-\	.	16b-/	.	16b-X/	.	8E-\	De-	8ee-\	de-	.	8e-\L	8g\L	16b-X/	.
.	.	16ee-/JJ	.	16ee-/JJ	.	.	.	.	.	.	.	.	16ee-/JJ	.
8G\	.	16e-/LL	.	16e-/LL	.	8G\	-in-	8ee-\	-in-	.	8e-\	8g\	16e-/LL	.
.	.	16g/	.	16g/	.	.	.	.	.	.	.	.	16g/	.
8E-\J	.	16b-/	.	16b-/	.	8E-\	-de	8ee-\	-de	.	8e-\J	8g\J	16b-/	.
.	.	16ee-/JJ	.	16ee-/JJ	.	.	.	.	.	.	.	.	16ee-/JJ	.
!	!	!	!	!LO:LB:g=original	!	!	!	!	!	!	!LO:TX:t=P:problem:mixed beam	!	!	!
8A-\L	.	16b-\LL	.	16dd\LL	.	(8A-\L	di-	8ff\L	di-	.	8f\L	8a-\L	16dd\LL	.
.	.	16dd\	.	16ff\	.	.	.	.	.	.	.	.	16ff\	.
8G\	.	16ff\	.	16bb-\	.	8G\J)	.	8ee-\J	.	.	8e-\	8g\	16bb-\	.
.	.	16dd\JJ	.	16ff\JJ	.	.	.	.	.	.	.	.	16ff\JJ	.
!	!	!	!	!	!	!	!	!	!	!	!	!	!LO:PB:g=original	!
8F\	.	16dd\LL	.	16ff\LL	.	8F\	-xit	8dd\	-xit	.	8B-/	8f\	16ff\LL	.
.	.	16b-\	.	16dd\	.	.	.	.	.	.	.	.	16dd\	.
8G\J	.	16dd\	.	16b-\	.	8A-\	di-	8ff\JL	di-	.	8e-/J	8a-\J	16b-\	.
.	.	16ff\JJ	.	16ff\JJ	.	.	.	.	.	.	.	.	16ff\JJ	.
!	!	!	!	!	!	!LO:LB:g=original	!	!	!	!	!LO:LB:g=original	!	!	!
=33	=33	=33	=33	=33	=33	=33	=33	=33	=33	=33	=33L	=33	=33	=33
8B-\L	.	8b-/L	.	8gg\L	.	8B-\	-sci-	8gg\	-sci-	.	8g\L	8b-\L	8gg\L	.
8G\	.	16a-/L	.	16ff\L	.	16A-\	-pu-	16ff\	-pu-	.	16f\L	16a-\L	16ff\L	.
.	.	16g/JJ	.	16ee-\JJ	.	16G\	-lo	16ee-\	-lis	.	16e-\JJ	16g\JJ	16ee-\JJ	.
!	!	!	!	!	!	!	!	!	!	!	!LO:TX:t=P:problem:mixed beam	!	!	!
8A-\	.	8a-/L	.	8ff\L	.	(8A-\	su-	4dd\	su-	.	8f\L	8a-\L	8ff\L	.
8B-\J	.	8f/J	.	8dd\J	.	8B-\)	.	.	.	.	8B-/J	8f\J	8dd\J	.
8E-\	.	8g/L	.	8ee-\	.	8E-\	-o	8ee-\	-is	.	8e-\	8g\	8ee-\	.
!	!	!	!	!	!	!LO:TX:a:t=Solo	!	!	!	!	!	!	!	!
8r	.	8e-/	.	4e-/	.	16G\LL	Ec-	8r	.	.	8r	8r	4e-/	.
.	.	.	.	.	.	16F\Jk	.	.	.	.	.	.	.	.
4r	.	8e-/	.	.	.	8G\J	.	4r	.	.	4r	4r	.	.
.	.	8e-/J	.	8f/	.	8A-\	-ce	.	.	.	.	.	8f/	.
=34	=34	=34	=34	=34	=34	=34	=34	=34	=34	=34	=34	=34	=34	=34
2r	.	8e-/L	.	8g/L	.	8B-\	Ma-	2r	.	.	2r	2r	8g/L	.
.	.	8e-/	.	8g/	.	8B-\	-ter	.	.	.	.	.	8g/	.
.	.	8A-/	.	8f/	.	(8A-\L	tu-	.	.	.	.	.	8f/	.
.	.	8A-/J	.	8e-/J	.	8G\J)	.	.	.	.	.	.	8e-/J	.
!	!	!LO:TX:t=P:problem:mixed beam	!	!LO:TX:t=P:problem:mixed beam	!	!	!	!	!	!	!	!	!LO:TX:t=P:problem:mixed beam	!
8r	.	8B-/L	.	8e-/L	.	8F\	-a	8r	.	.	4g\	8r	8e-/L	.
8E-\L	.	8b-\	.	8ee-\	.	8E-\	et	16e-/LL	Et	.	.	16g\LL	8ee-\	.
.	.	.	.	.	.	.	.	16f/JJ	.	.	.	16a-\JJ	.	.
8E-\	.	8ee-\	.	8gg\	.	8E-\	cir-	8g\	cir-	.	16e-\LL	8b-\L	8gg\	.
.	.	.	.	.	.	.	.	.	.	.	16f\	.	.	.
8E-\J	.	8ee-\J	.	8bb-\J	.	8E-\	-ca	8a-\	-ca	.	16g\	8cc\J	8bb-\J	.
.	.	.	.	.	.	.	.	.	.	.	16a-\JJ	.	.	.
=35	=35	=35	=35	=35	=35	=35	=35	=35	=35	=35	=35	=35	=35	=35
8E-\L	.	16e-/LL	.	16e-/LL	.	4E-\	ho-	16b-\LL	ho-	.	16g\LL	16b-\LL	16ee-\LL	.
.	.	16e-/	.	16e-/	.	.	.	16a-\	.	.	16f\	16a-\	16ee-\	.
8E-\	.	16e-/	.	16e-/	.	.	.	16b-\	-rum	.	16g\	16b-\	16ee-\	.
.	.	16e-/JJ	.	16e-/JJ	.	.	.	16cc\JJ	.	.	16a-\JJ	16cc\JJ	16ee-\JJ	.
!	!	!LO:LB:g=original	!	!	!	!	!	!LO:LB:g=original	!	!	!	!	!	!
8G\	.	16e-/LL	.	16e-/LL	.	(8G\L	-rum	8b-\L	no-	.	8g\L	8b-\L	16ee-\LL	.
.	.	16e-/	.	16e-/	.	.	.	.	.	.	.	.	16ee-\	.
8A-\J	.	16e-/	.	16e-/	.	8A-\J)	.	16a-\L	.	.	16f\L	16a-\L	16ee-\	.
.	.	16e-/JJ	.	16e-/JJ	.	.	.	16g\JJ	.	.	16e-\JJ	16g\JJ	16ee-\JJ	.
!LO:TX:t=P:problem:mixed beam	!	!	!	!	!	!	!	!	!	!	!	!	!	!
8B-\L	.	16B-/LL	.	16B-/LL	.	4B-\	no-	8f/	-nam	.	8B-\L	8f\L	16b-\LL	.
.	.	16B-/	.	16B-/	.	.	.	.	.	.	.	.	16b-\	.
8BB-/	.	16B-/	.	16B-/	.	.	.	4f/	cla-	.	8B-\	8f\	16b-\	.
.	.	16B-/JJ	.	16B-/JJ	.	.	.	.	.	.	.	.	16b-\JJ	.
!	!	!	!	!LO:LB:g=original	!	!	!	!	!	!	!	!	!	!
8BB-/	.	16B-/LL	.	16B-/LL	.	8BB-/	.	.	.	.	8B-\	8f\	16b-\LL	.
.	.	16B-/	.	16B-/	.	.	.	.	.	.	.	.	16b-\	.
8BB-/J	.	16B-/	.	16B-/	.	8BB-/	-nam	8g/	-ma-	.	8e-\J	8g\J	16b-\	.
.	.	16B-/JJ	.	16B-/JJ	.	.	.	.	.	.	.	.	16b-\JJ	.
!	!	!	!	!	!	!LO:LB:g=original	!	!	!	!	!	!	!	!
=36	=36	=36	=36	=36	=36	=36	=36	=36	=36	=36	=36	=36	=36	=36
8BB-/L	.	16B-/LL	.	16B-/LL	.	8D\	cla-	8a-/	-bant	.	8f\L	8a-\L	16b-\LL	.
.	.	16B-/	.	16B-/	.	.	.	.	.	.	.	.	16b-\	.
8BB-/	.	16B-/	.	16B-/	.	8D\	-ma-	8a-/	Je-	.	8f\	8a-\	16b-\	.
.	.	16B-/JJ	.	16B-/JJ	.	.	.	.	.	.	.	.	16b-\JJ	.
8BB-/	.	16B-/LL	.	16B-/LL	.	8.E-\	-bat	8g/	.	.	8e-\	8g\	16b-\LL	.
.	.	16B-/	.	16B-/	.	.	.	.	.	.	.	.	16b-\	.
8BB-/J	.	16B-/	.	16B-/	.	.	.	8f/	-sus	.	8c\J	8f\J	16b-\	.
.	.	16B-/JJ	.	16B-/JJ	.	16BB-/	Jesus	.	.	.	.	.	16b-\JJ	.
!	!	!	!	!	!	!LO:N:vis=8.	!	!	!	!	!	!	!LO:LB:g=original	!
4E-\	.	8e-/	.	8e-/	.	4.G\	Vo-	4.b-T\	uo-	.	8e-\	8g\	8e-/	.
!	!	!	!	!	!	!	!	!	!	!	!	!LO:LB:g=original	!	!
.	.	(4g/	.	[4cc\	.	.	.	.	.	.	4g\	4b-\	4cc\	.
8r	.	.	.	.	.	.	.	.	.	.	.	.	.	.
8BB-/	.	16a-/LL)	.	16cc\LL]	.	8F\	-ce	16cc\LL	-ce	.	8f\	8a-\	16cc\LL	.
.	.	16f/JJ	.	16dd\JJ	.	.	.	16dd\JJ	.	.	.	.	16dd\JJ	.
!LO:LB:g=original	!	!	!	!	!	!	!	!	!	!	!	!	!	!
=37	=37	=37	=37	=37	=37	=37	=37	=37	=37	=37	=37	=37	=37	=37
!LO:LB:g=original	!	!LO:TX:t=P:problem:mixed beam	!	!	!	!	!	!	!	!	!	!	!	!
8E-\L	.	8g/L	.	8ee-\L	.	8G\	ma-	8ee-\	ma-	.	8e-\L	8g\L	8ee-\L	.
8A-\	.	8ee-\	.	8gg\	.	8A-\	-gna	8ee-\	-gna	.	8e-\J	8g\	8gg\	.
!	!	!	!	!	!	!LO:TX:t=P:problem:mixed beam	!	!	!	!	!	!	!	!
8B-\	.	8ff\	.	8aa-\	.	8B-\L	di-	8ff\L	Di-	.	8f\L	8a-\	8aa-\	.
8BB-/J	.	8dd\J	.	8ff\J	.	8BB-/J	.	8dd\J	.	.	8B-\J	8f\J	8ff\J	.
!	!	!LO:TX:t=P:problem:mixed beam	!	!LO:TX:t=P:problem:mixed beam	!	!	!	!	!	!	!	!	!	!
4E-\	.	8ee-\L	.	8gg\L	.	8E-\	-cens	8ee-\	-cens	.	4e-\	4g\	8gg\L	.
.	.	8e-/	.	8e-/	.	(16E-\LL	He-	4r	.	.	.	.	8ee-\	.
.	.	.	.	.	.	16F\JJ)	.	.	.	.	.	.	.	.
4r	.	8e-/	.	8e-/	.	8G\L	-li	.	.	.	4r	4r	8ee-\	.
.	.	8e-/J	.	8e-/J	.	8A-\J	.	8r	.	.	.	.	8ee-\J	.
=38	=38	=38	=38	=38	=38	=38	=38	=38	=38	=38	=38	=38	=38	=38
!	!	!	!	!	!	!	!	!LO:TX:a:t=1	!	!	!LO:TX:a:t=1	!LO:TX:a:t=1	!	!
1r	.	8e-/L	.	8e-/	.	8B-\	He-	1r	.	.	1r	1r	8e-/	.
.	.	8e-/	.	4g/	.	4e-\	.	.	.	.	.	.	4g/	.
.	.	8e-/	.	.	.	.	.	.	.	.	.	.	.	.
.	.	8e-/J	.	(16b-/LL	.	16d\LL	.	.	.	.	.	.	16b-/LL	.
.	.	.	.	16g/JJ)	.	16c\JJ	.	.	.	.	.	.	16g/JJ	.
!	!	!LO:LB:g=original	!	!	!	!	!	!	!	!	!	!	!	!
.	.	8B-/	.	8e-/L	.	8B-\	-li	.	.	.	.	.	8ee-\L	.
.	.	8r	.	8B-/J	.	16F\	La-	.	.	.	.	.	8b-\J	.
.	.	.	.	.	.	16G\	-ma	.	.	.	.	.	.	.
.	.	8B-/	.	8f/L	.	8A-\	za-	.	.	.	.	.	8ff\L	.
.	.	8r	.	8f/J	.	8A-\	-ba-	.	.	.	.	.	8ff\J	.
!	!	!	!	!	!	!LO:LB:g=original	!	!	!	!	!	!	!	!
=39	=39	=39	=39	=39	=39	=39	=39	=39	=39	=39	=39	=39	=39	=39
2r	.	4B-/	.	4fT/	.	4A-\	-tha-	2r	.	.	2r	2r	4ff\	.
.	.	4e-/	.	4e-/	.	4G\	-ni	.	.	.	.	.	4ff\	.
!	!	!	!	!LO:LB:g=original	!LO:DY:b:t=forte	!	!	!	!	!	!	!	!	!
4E-\	.	4ee- 4g 4B-/	.	4gg 4b- 4e-/	f	2r	.	4ee-\	hoc	.	4g\	4b-\	4gg\	.
4E-\	.	4ee- 4g 4B-/	.	4gg 4b- 4e-/	.	.	.	4ee-\	est	.	4g\	4b-\	4gg\	.
!	!	!	!	!	!	!	!	!	!	!	!LO:LB:g=original	!	!	!
=40	=40	=40	=40	=40	=40	=40	=40	=40	=40	=40	=40	=40	=40	=40
!	!	!	!	!	!LO:DY:b:t=pia	!	!	!LO:TX:a:t=2	!	!	!LO:TX:a:t=2	!LO:TX:a:t=2	!	!
0r	.	8e-/L	.	8e-/L	p	8r	.	0r	.	.	0r	0r	8ee-\L	p
.	.	8e-/	.	8e-/	.	16E-\LL	hoc	.	.	.	.	.	8ee-\	.
.	.	.	.	.	.	16F\JJ	.	.	.	.	.	.	.	.
.	.	8e-/	.	8e-/	.	8G\L	eſt	.	.	.	.	.	8ee-\	.
.	.	8e-/J	.	8e-/J	.	8A-\J	.	.	.	.	.	.	8ee-\J	.
.	.	8e-/L	.	8e-/	.	8B-\	De-	.	.	.	.	.	8ee-\	.
.	.	8e-/	.	4g/	.	4e-\	.	.	.	.	.	.	4gg\	.
.	.	8e-/	.	.	.	.	.	.	.	.	.	.	.	.
.	.	8e-/J	.	(16b-/LL	.	16e-\LL	-us	.	.	.	.	.	16bb-\LL	.
.	.	.	.	16g/JJ)	.	16c\JJ	.	.	.	.	.	.	16gg\JJ	.
=41	=41	=41	=41	=41	=41	=41	=41	=41	=41	=41	=41	=41	=41	=41
.	.	8B-/L	.	8g/L	.	8.B-\L	me-	.	.	.	.	.	8gg\L	.
.	.	8B-/	.	8e-/	.	.	.	.	.	.	.	.	8ee-\	.
.	.	.	.	.	.	32A-\LL	.	.	.	.	.	.	.	.
.	.	.	.	.	.	32G\JJJ	.	.	.	.	.	.	.	.
.	.	8B-/	.	8f/	.	4A-\	-us	.	.	.	.	.	8ff\	.
.	.	8d/J	.	8B-/J	.	.	.	.	.	.	.	.	8b-\J	.
.	.	8e-/L	.	8e-/L	.	8G\	.	.	.	.	.	.	8ee-\L	.
.	.	8B-/	.	8d/	.	8F\	ut	.	.	.	.	.	8dd\	.
.	.	8B-/	.	8e-/	.	8G\	quid	.	.	.	.	.	8ee-\	.
.	.	8B-/J	.	8f/J	.	8A-\	me	.	.	.	.	.	8ff\J	.
!	!	!	!	!	!	!LO:PB:g=original	!	!LO:LB:g=original	!	!	!	!	!LO:LB:g=original	!
=42	=42	=42	=42	=42	=42	=42	=42	=42	=42	=42	=42	=42	=42	=42
!	!	!	!	!LO:TX:t=P:problem:mixed beam	!	!	!	!	!	!	!	!	!	!
2r	.	8e-/L	.	8g\L	.	16G\LL	De-	2r	.	.	2r	2r	8g/L	.
.	.	.	.	.	.	16F\JJ	.	.	.	.	.	.	.	.
.	.	8f/	.	8a-\	.	16G\	-re-	.	.	.	.	.	8a-/	.
.	.	.	.	.	.	16A-\	-li-	.	.	.	.	.	.	.
!	!	!	!	!	!	!LO:TX:t=P:problem:mixed beam	!	!	!	!	!	!	!	!
.	.	8g/	.	8b-\	.	8B-\L	-qui-	.	.	.	.	.	8b-/	.
.	.	8B-/J	.	8B-/J	.	8BB-/J	.	.	.	.	.	.	8b-/J	.
!	!	!LO:TX:t=P:problem:mixed beam	!	!LO:TX:t=P:problem:mixed beam	!	!	!	!	!	!	!	!	!LO:TX:t=P:problem:mixed beam	!
8r	.	8e-/L	.	8e-/L	.	8E-\	-sti:	8r	.	.	8r	8r	8e-/L	.
8E-\L	.	8ee-\	.	8gg\	.	8G\	cla-	8ee-\	Cla-	.	8g\L	8b-\L	8gg\	.
8E-\	.	8ee-\	.	8gg\	.	8G\	-ma-	8ee-\	-ma-	.	8g\	8b-\	8gg\	.
8E-\J	.	8ee-\J	.	8gg\J	.	8G\	-bant	8ee-\	-bant	.	8g\J	8b-\J	8gg\J	.
!	!	!LO:LB:g=original	!	!	!	!	!	!	!	!	!	!	!	!
=43	=43	=43	=43	=43	=43	=43	=43	=43	=43	=43	=43	=43	=43	=43
!	!	!	!	!	!	!	!	!	!	!	!	!	!LO:TX:t=P:problem:mixed beam	!
8E-\L	.	8cc\L	.	8e-/L	.	8A-\	au-	8ee-\	au-	.	8a-\L	8cc\L	8e-/L	.
8E-\	.	8cc\	.	8ee-\	.	4A-\	-te(m)	4ee-\	-tem	.	8a-\	8cc\	8ee-\	.
8E-\	.	8cc\	.	8ee-\	.	.	.	.	.	.	8a-\	8cc\	8ee-\	.
8E-\J	.	8cc\J	.	8ee-\J	.	8A-\	Ju-	8ee-\	Ju-	.	8a-\J	8cc\J	8ee-\J	.
!	!	!	!	!LO:LB:g=original	!	!	!	!	!	!	!	!	!	!
*	*	*	*	*	*	*	*	*	*	*	*	*tremolo	*	*
!	!	!	!	!LO:TX:t=P:problem:mixed beam	!	!	!	!	!	!	!	!	!LO:TX:t=P:problem:mixed beam	!
8E-\L	.	8b-\L	.	8g/L	.	8G\	-de-	4ee-\	-de-	.	8g\L	8b-\L	8g/L	.
8E-\	.	8gg\	.	8bb-\	.	4G\	-i	.	.	.	8g\	8b-\	8bb-\	.
8E-\	.	8gg\	.	8bb-\	.	.	.	8ee-\	-i-	.	8g\	8b-\	8bb-\	.
8E-\J	.	8gg\J	.	8bb-\J	.	8G\	di-	8ee-\	di-	.	8g\J	8b-\J	8bb-\J	.
=44	=44	=44	=44	=44	=44	=44	=44	=44	=44	=44	=44	=44	=44	=44
8BB-/L	.	8dd\L	.	8ff\L	.	8F\L	-cen-	4dd\	-cen-	.	8f\L	8a-\L	8ff\L	.
8BB-/	.	8dd\	.	8ff\	.	16G\L	.	.	.	.	8f\	8a-\	8ff\	.
.	.	.	.	.	.	16A-\JJ	.	.	.	.	.	.	.	.
8BB-/	.	8dd\	.	8ff\	.	4B-\	-tes	4dd\	-tes	.	8f\	8a-\	8ff\	.
8BB-/J	.	8dd\J	.	8ff\J	.	.	.	.	.	.	8f\J	8a-\J	8ff\J	.
*	*	*	*	*	*	*	*	*	*	*	*	*Xtremolo	*	*
!	!	!LO:TX:t=P:problem:mixed beam	!	!LO:TX:t=P:problem:mixed beam	!	!LO:LB:g=original	!	!	!	!	!	!	!LO:TX:t=P:problem:mixed beam	!
4E-\	.	8ee-\L	.	8gg\L	.	8G\	E-	8b-\	he-	.	4e-\	4g\	8gg\L	.
.	.	8g/	.	8b-/	.	8G\	-li-	8b-\	-li-	.	.	.	8b-/	.
4r	.	8g/	.	8b-/	.	4E-\	-am	4g\	-am	.	4r	4r	8b-/	.
!LO:TX:a:t=44.	!	!LO:TX:a:t=44	!	!	!	!	!	!	!	!	!	!	!LO:TX:a:t=44	!
!	!	!	!	!LO:TX:a:t=P:problem:podwójna kreska taktowa	!	!	!	!	!	!	!	!	!LO:TX:a:t=P:problem:podwójna kreska taktowa	!
.	.	8e-/J	.	8a-/J	.	.	.	.	.	.	.	.	8a-/J	.
!LO:LB:g=original	!	!	!	!	!	!	!	!	!	!	!	!	!	!
=45	=45	=45	=45	=45	=45	=45	=45	=45	=45	=45	=45	=45	=45;;	=45
*	*	*	*	*	*	*	*	*	*	*	*	*	*clefG2	*
*	*	*	*	*	*	*	*	*	*	*	*	*	*k[b-a-e-]	*
*M3/4	*	*M3/4	*	*M3/4	*	*M3/4	*	*M3/4	*	*	*M3/4	*M3/4	*M3/4	*
!	!	!LO:TX:a:i:t=molto	!	!	!	!	!	!	!	!	!	!	!	!
!	!	!LO:TX:t=P:problem:mixed beam	!	!LO:TX:t=P:problem:mixed beam	!	!	!	!	!	!	!LO:TX:b:i:t=Heliam	!	!LO:TX:t=P:problem:mixed beam	!
4E-\	.	8B-/L	.	8e-/L	.	4E-\	E-	4b-\	He-	.	4g\	4b-\	8e-/L	.
.	.	8ee-\	.	8ee-\	.	.	.	.	.	.	.	.	8ee-\	.
!	!	!LO:TX:a:t=g	!	!	!	!	!	!	!	!	!	!	!	!
4E-\	.	8b-\	.	8e-/	.	4E-\	-li-	4b-\	-li-	.	4g\	4b-\	8e-/	.
.	.	8ee-\	.	8gg\	.	.	.	.	.	.	.	.	8gg\	.
4E-\	.	8gg\	.	8bb-\	.	4E-\	-am	4b-\	-am	.	4g\	4b-\	8bb-\	.
.	.	8ee-\J	.	8gg\J	.	.	.	.	.	.	.	.	8gg\J	.
=46	=46	=46	=46	=46	=46	=46	=46	=46	=46	=46	=46	=46	=46	=46
4E-\	.	8b-/L	.	8ee-/L	.	8G\	uo-	8ee-\	vo-	.	4g\	4b-\	8ee-\L	.
.	.	8g/	.	8b-/	.	8G\	-cat	8ee-\	-cat	.	.	.	8b-\	.
8E-\L	.	8e-/	.	8g/	.	4G\	is-	4ee-\	i-	.	8e-\L	8g\L	8g\	.
8F\	.	8g/	.	8b-/	.	.	.	.	.	.	8e-\	8g\J	8b-\J	.
*	*	*	*	*	*	*	*	*	*	*	*	*tremolo	*	*
8G\	.	8e-/	.	8g/	.	4E-\	-te	4ee-\	-ſtae	.	8e-\	8g\L	8g/L	.
8A-\J	.	8B-/J	.	8e-/J	.	.	.	.	.	.	8e-\J	8g\J	8e-/J	.
*	*	*	*	*	*	*	*	*	*	*	*	*Xtremolo	*	*
!	!	!	!	!	!	!	!	!LO:LB:g=original	!	!	!	!	!LO:LB:g=original	!
=47	=47	=47	=47	=47	=47	=47	=47	=47	=47	=47	=47	=47	=47	=47
8B-\L	.	4dd 4f 4B-/	.	4ff 4b- 4d/	.	8B-\	ſi-	8dd\	ſi-	.	4B-/	4f\	4ff\	.
8B-\J	.	.	.	.	.	8B-\	-ni-	8dd\	-ni-	.	.	.	.	.
4B-\	.	4dd 4f 4B-/	.	4ff 4b- 4d/	.	4B-\	-te	4dd\	-te	.	4B-/	4f\	4ff\	.
4r	.	4r	.	4r	.	4r	.	4r	.	.	4r	4r	4r	.
!	!	!LO:LB:g=original	!	!	!	!LO:LB:g=original	!	!	!	!	!	!LO:LB:g=original	!	!
=48	=48	=48	=48	=48	=48	=48	=48	=48	=48	=48	=48	=48	=48	=48
4r	.	4r	.	4r	.	4r	.	4r	.	.	4r	4r	4r	.
4BB-/	.	4dd\	.	4gg 4b- 4e-/	.	4F\	ui-	4dd\	Vi-	.	4B-/	4f\	4gg\	.
4BB-/	.	4ee-\	.	4gg 4b- 4e-/	.	4G\	-de-	4ee-\	-de-	.	4e-/	4g\	4gg\	.
!	!	!	!	!LO:LB:g=original	!	!	!	!	!	!	!	!	!	!
=49	=49	=49	=49	=49	=49	=49	=49	=49	=49	=49	=49	=49	=49	=49
4BB-/	.	8dd\L	.	8ff\L	.	4F\	-a-	4dd\	-a-	.	4B-/	4f\	8ff\L	.
.	.	8b-\	.	8b-\	.	.	.	.	.	.	.	.	8b-\	.
4BB-/	.	8ee-\	.	8gg\	.	4G\	-mus	4ee-\	-mus	.	4e-/	4g\	8gg\	.
.	.	8b-\	.	8b-\	.	.	.	.	.	.	.	.	8b-\	.
4BB-/	.	8ff\	.	8aa-\	.	4A-\	an-	4ff\	a-	.	4f/	4a-\	8aa-\	.
.	.	8b-\J	.	8b-\J	.	.	.	.	.	.	.	.	8b-\J	.
!	!	!	!	!	!	!	!	!	!	!	!LO:LB:g=original	!	!	!
=50	=50	=50	=50	=50	=50	=50	=50	=50	=50	=50	=50	=50	=50	=50
4E-\	.	4b-/	.	4gg\	.	8B-\	-eu-	8gg\	-ue-	.	4g\	4b-\	4gg\	.
.	.	.	.	.	.	8B-\	-ni-	8gg\	-ni-	.	.	.	.	.
4A-\	.	4a-/	.	4ff\	.	4.A-\	-at	4ff\	-at	.	4f\	4a-\	4ff\	.
4c\	.	4g/	.	4ee-\	.	.	.	4ee-\	he-	.	4e-\	4g\	4ee-\	.
.	.	.	.	.	.	8G\	E-	.	.	.	.	.	.	.
=51	=51	=51	=51	=51	=51	=51	=51	=51	=51	=51	=51	=51	=51	=51
4B-\	.	4dd 4f 4B-/	.	4ff 4dd 4d/	.	2F\	-li-	2dd\	-li-	.	4B-/	4f\	4ff\	.
4F\	.	4dd 4f 4B-/	.	4ff 4b- 4d/	.	.	.	.	.	.	8B-/L	8f\L	4ff\	.
.	.	.	.	.	.	.	.	.	.	.	8B-/J	8f\J	.	.
4BB-/	.	4dd 4f 4B-/	.	4ff 4b- 4d/	.	4F\	-as	4dd\	-as	.	4B-/	4f\	4ff\	.
!LO:LB:g=original	!	!	!	!	!	!	!	!	!	!	!	!	!	!
=52	=52	=52	=52	=52	=52	=52	=52	=52	=52	=52	=52	=52	=52	=52
!	!	!LO:TX:t=P:problem:mixed beam	!	!	!	!	!	!	!	!	!	!	!	!
4E-\	.	8ee-\L	.	8gg\L	.	4E-\	li-	4ee-\	li-	.	4e-\	4g\	8gg\L	.
.	.	8g/	.	8ee-\	.	.	.	.	.	.	.	.	8ee-\	.
!LO:TX:t=P:problem:mixed beam	!	!	!	!	!	!	!	!	!	!	!	!	!	!
8G\L	.	8ee-\	.	8gg\	.	8G\L	-Be-	8ee-\	-be-	.	4f\	4a-\	8gg\	.
8A-\	.	8ff\J	.	8bb-\	.	8A-\J	-rans	8ff\	-rans	.	.	.	8bb-\	.
!	!	!	!	!	!	!LO:TX:t=P:problem:mixed beam	!	!	!	!	!	!	!	!
8B-\	.	8b-\L	.	8gg\	.	8B-\L	e-	4dd\	e-	.	4B-/	4f\	8gg\	.
8BB-/J	.	8b-\J	.	8ee-\J	.	8BB-/J	-u-	.	.	.	.	.	8ee-\J	.
!	!	!	!	!	!	!LO:LB:g=original	!	!	!	!	!	!	!	!
=53	=53	=53	=53	=53	=53	=53	=53	=53	=53	=53	=53	=53	=53	=53
4E-\	.	4g/	.	4ee-\	.	4E-\	-um	4ee-\	-um	.	4e-\	4g\	4ee-\	.
4c\	.	4ee-\	.	4gg\	.	4c\	di-	4ee-\	di-	.	4G/	4G/	4gg\	.
4G\	.	4dd\	.	4gg\	.	4G\	-xit	4ee-\	-xit	.	4G/	4G/	4gg\	.
!	!	!LO:LB:g=original	!	!	!	!	!	!LO:LB:g=original	!	!	!	!	!	!
=54	=54	=54	=54	=54	=54	=54	=54	=54	=54	=54	=54	=54	=54	=54
*	*	*2\right	*	*2\right	*	*	*	*	*	*	*	*	*2\right	*
2A-\	.	2ee-TT\	.	2ccc\	.	2A-\	er-	2ccT\	er-	.	4G/	4G/	2ccc\	.
.	.	.	.	.	.	.	.	.	.	.	8G/L	8G/L	.	.
.	.	.	.	.	.	.	.	.	.	.	8G/	8G/	.	.
4F\	.	8ff\L	.	8ddd\L	.	4F\	-go	8dd\L	-go	.	8G/	8G/	8ddd\L	.
.	.	8ee-\J	.	8ccc\J	.	.	.	8cc\J	.	.	8G/J	8G/J	8ccc\J	.
=55	=55	=55	=55	=55	=55	=55	=55	=55	=55	=55	=55	=55	=55	=55
2.G;\	.	2dd\	.	2bbn\	.	2G\	Je-	2bn\	Je-	.	2.G/	2.G/	2bbn\	.
!LO:TX:a:i:t=Lentiſsimae	!	!	!	!	!	!	!	!	!	!	!	!	!	!
!LO:TX:b:i:t=Sequt inclinato	!	!	!	!	!	!	!	!	!	!	!	!	!LO:TX:a:t=11.	!
!LO:TX:a:t=11.	!	!LO:TX:a:t=11.	!	!LO:TX:b:i:t=Seq	!	!	!	!	!	!	!LO:TX:a:t=P:problem:kreska taktowa z obustronną repetycją	!	!	!
.	.	4dd\	.	4bb\	.	4G\	-sus	4b\	-sus	.	.	.	4bb\	.
!LO:PB:g=original	!	!	!	!LO:PB:g=original	!	!	!	!	!	!	!	!	!LO:LB:g=original	!
=56||	=56||	=56||	=56||	=56||	=56||	=56||	=56||	=56||	=56||	=56||	=56||	=56||	=56||	=56||
*clefF4	*	*	*	*clefG2	*	*	*	*	*	*	*	*	*clefG2	*
*k[b-e-a-]	*	*	*	*k[a-b-e-]	*	*	*	*	*	*	*	*	*k[b-a-e-]	*
*M4/4	*	*M4/4	*	*M4/4	*	*M4/4	*	*M4/4	*	*	*M4/4	*M4/4	*M4/4	*
*met(C.)	*	*met(C.)	*	*met(C.)	*	*met(C.)	*	*met(C.)	*	*	*met(C.)	*met(C.)	*met(C.)	*
!LO:TX:a:t=P:problem:znaki BB- E- A-	!	!	!	!LO:TX:b:i:t=Sitio	!	!	!	!LO:TX:a:t=2	!	!	!	!LO:TX:a:t=2	!	!
!LO:TX:a:i:t=Lente	!	!LO:TX:a:i:t=Lentiſsima	!	!LO:TX:a:t=Lentissima	!	!LO:TX:a:rj:t=adagio	!	!LO:TX:b:t=Sitio	!	!	!LO:TX:b:i:t=Sitio	!	!	!
00r	.	2r	.	2r	.	4c\	Si-	0r	.	.	0r	0r	2r	.
.	.	.	.	.	.	16G\LL	.	.	.	.	.	.	.	.
.	.	.	.	.	.	16F\	.	.	.	.	.	.	.	.
.	.	.	.	.	.	16E-\	.	.	.	.	.	.	.	.
.	.	.	.	.	.	16D\JJ	.	.	.	.	.	.	.	.
.	.	8r	.	8r	.	16C/LL	.	.	.	.	.	.	8r	.
.	.	.	.	.	.	16BBn/	.	.	.	.	.	.	.	.
.	.	8e-/L	.	8g/L	.	16C/	.	.	.	.	.	.	8g/L	.
.	.	.	.	.	.	16D/JJ	.	.	.	.	.	.	.	.
!	!	!	!	!	!LO:DY:b:t=pia	!	!	!	!	!	!	!	!	!
.	.	8e-/	.	8g/	p	16C/LL	.	.	.	.	.	.	8g/	.
.	.	.	.	.	.	16D/	.	.	.	.	.	.	.	.
.	.	8e-/J	.	8g/J	.	16E-/	.	.	.	.	.	.	8g/J	.
.	.	.	.	.	.	16F/JJ	.	.	.	.	.	.	.	.
!	!	!	!	!	!	!LO:LB:g=original	!	!	!	!	!	!	!	!
=57	=57	=57	=57	=57	=57	=57	=57	=57	=57	=57	=57	=57	=57	=57
.	.	8Bn/L	.	8d/L	.	4.G\	.	.	.	.	.	.	8dd\L	.
.	.	8B/	.	8d/	.	.	.	.	.	.	.	.	8dd\	.
.	.	8B/	.	8d/	.	.	.	.	.	.	.	.	8dd\	.
.	.	.	.	.	.	8qqA-/	.	.	.	.	.	.	.	.
.	.	8B/J	.	8d/J	.	8G\	-ti-	.	.	.	.	.	8dd\J	.
.	.	.	.	.	.	8qqA-/	.	.	.	.	.	.	.	.
!	!	!	!	!	!	!LO:TX:a:t=P:problem:podwójna kreska taktowa	!	!LO:TX:b:i:t=Vertatur citiſsimo	!	!	!	!	!	!
.	.	2B;/	.	2d;/	.	2G\	o	.	.	.	.	.	2dd;\	.
!	!	!	!	!	!	!	!	!LO:PB:g=original	!	!	!	!	!	!
=58	=58	=58	=58	=58	=58	=58	=58	=58	=58	=58	=58	=58	=58	=58
.	.	16bn\LL	.	16dd\LL	.	0r	.	(16dd\LL	et	.	4G/	4G/	16dd\LL	.
.	.	16a-\	.	16cc\	.	.	.	16cc\	.	.	.	.	16cc\	.
.	.	16b\	.	16dd\	.	.	.	16dd\	de-	.	.	.	16dd\	.
.	.	16cc\JJ	.	16ee-\JJ	.	.	.	16ee-\JJ)	.	.	.	.	16ee-\JJ	.
.	.	8b\L	.	8dd\L	.	.	.	8dd\	-de-	.	8r	8r	8dd\L	.
.	.	8cc\J	.	8ee-\J	.	.	.	8ee-\	-runt	.	8G/	8G/	8ee-\J	.
!	!	!LO:LB:g=original	!	!	!	!	!	!	!	!	!	!	!	!
.	.	8dd\	.	8ff\	.	.	.	8ff\	e-	.	4G/	4G/	8ff\	.
.	.	(4dd\	.	4ff\	.	.	.	4ff\	-i,	.	.	.	4ff\	.
.	.	.	.	.	.	.	.	.	.	.	8r	8r	.	.
.	.	16cc\LL)	.	(16ee-\LL	.	.	.	16ee-\LL	a-	.	8G/	8G/	16ee-\LL	.
.	.	16bn\JJ	.	16dd\JJ)	.	.	.	16dd\JJ	.	.	.	.	16dd\JJ	.
!	!	!	!	!LO:LB:g=original	!	!	!	!	!	!	!	!	!	!
=59	=59	=59	=59	=59	=59	=59	=59	=59	=59	=59	=59	=59	=59	=59
.	.	8cc\L	.	8.ee-\L	.	.	.	8ee-\	-Ce-	.	4G/	4G/	8.ee-\L	.
.	.	8ee-\J	.	.	.	.	.	16dd\	-tum,-	.	.	.	.	.
.	.	.	.	16gg\Jk	.	.	.	16gg\	-cum	.	.	.	16gg\Jk	.
.	.	16ff\LL	.	16aa-\LL	.	.	.	(16aa-\LL	fe-	.	4r	4r	16aa-\LL	.
.	.	16ee-\	.	(16gg\	.	.	.	16gg\JJ)	.	.	.	.	16gg\	.
.	.	16dd\	.	16ff\	.	.	.	16ff\LL	-le	.	.	.	16ff\	.
.	.	16cc\JJ	.	16ee-\JJ)	.	.	.	16ee-\JJ	.	.	.	.	16ee-\JJ	.
.	.	8bn\L	.	8dd\L	.	.	.	8dd\	mix-	.	8G/L	8G/L	8dd\L	.
.	.	16b\L	.	(16dd\L	.	.	.	16dd\	-tum	.	16G/L	16G/L	16dd\L	.
.	.	16cc\JJ	.	16ee-\JJ)	.	.	.	16ee-\	et	.	16G/JJ	16G/JJ	16ee-\JJ	.
.	.	8dd\L	.	8ff\L	.	.	.	8ff\	cum	.	8G/L	8G/L	8ff\L	.
.	.	16cc\L	.	(16ee-\L	.	.	.	16ee-\LL	gus-	.	8G/J	8G/J	16ee-\L	.
.	.	16b\JJ	.	16dd\JJ)	.	.	.	16dd\JJ	.	.	.	.	16dd\JJ	.
!	!	!	!	!	!	!	!	!LO:LB:g=original	!	!	!	!LO:LB:g=original	!	!
=60	=60	=60	=60	=60	=60	=60	=60	=60	=60	=60	=60	=60	=60	=60
0r	.	16g/LL	.	16ee-\LL	.	1r	.	(16ee-\LL	-sta	.	4G/	4G/	16ee-\LL	.
.	.	16f/	.	16dd\	.	.	.	16dd\	.	.	.	.	16dd\	.
.	.	16e-/	.	16cc\	.	.	.	16cc\)	ſset	.	.	.	16cc\	.
.	.	16g/JJ	.	16ee-\JJ	.	.	.	16ee-\JJ	.	.	.	.	16ee-\JJ	.
!	!	!	!	!	!	!	!	!	!	!	!LO:LB:g=original	!	!	!
.	.	8f/L	.	8dd\L	.	.	.	16dd\	no-	.	4r	4r	8dd\L	.
.	.	.	.	.	.	.	.	16dd\	-lu-	.	.	.	.	.
.	.	8e-/J	.	8cc\J	.	.	.	8cc\	-it	.	.	.	8cc\J	.
!	!	!	!	!	!	!	!	!	!	!	!	!	!LO:LB:g=original	!
.	.	16d/LL	.	16bn/LL	.	.	.	16bn\	bi-	.	8G/L	2r	16bn/LL	.
.	.	16c/	.	16a-/	.	.	.	16an\	-be-	.	.	.	16a-/	.
.	.	16d/	.	16b/	.	.	.	16b\	-re	.	16G/L	.	16b/	.
.	.	16e-/JJ	.	16cc/JJ	.	.	.	16cc\	et	.	16G/JJ	.	16cc/JJ	.
.	.	8f/L	.	8dd\L	.	.	.	8dd\L	di-	.	8G/L	.	8dd\L	.
.	.	8d/J	.	8b\J	.	.	.	8bn\J	.	.	8G/J	.	8b\J	.
!	!	!LO:LB:g=original	!	!	!	!	!	!	!	!	!	!	!	!
=61	=61	=61	=61	=61	=61	=61	=61	=61	=61	=61	=61	=61	=61	=61
.	.	8e-/	.	8cc\	.	4c\	Con-	4cc\	-xit	.	4G/	4G/	8cc\	.
.	.	8r	.	8r	.	.	.	.	.	.	.	.	8r	.
.	.	4r	.	4r	.	(16G\LL	.	4r	.	.	4r	4r	4r	.
.	.	.	.	.	.	16F\	.	.	.	.	.	.	.	.
.	.	.	.	.	.	16E-\	.	.	.	.	.	.	.	.
.	.	.	.	.	.	16D\JJ)	.	.	.	.	.	.	.	.
.	.	8r	.	8r	.	(16C/LL	.	2r	.	.	2r	2r	8r	.
.	.	.	.	.	.	16BBn/	.	.	.	.	.	.	.	.
.	.	8e-/L	.	8g/L	.	16C/	.	.	.	.	.	.	8g/L	.
.	.	.	.	.	.	16D/JJ)	.	.	.	.	.	.	.	.
.	.	8e-/	.	8g/	.	(16E-\LL	.	.	.	.	.	.	8g/	.
.	.	.	.	.	.	16D\	.	.	.	.	.	.	.	.
.	.	8e-/J	.	8g/J	.	16E-\	-sum-	.	.	.	.	.	8g/J	.
.	.	.	.	.	.	16F\JJ)	.	.	.	.	.	.	.	.
!	!	!	!	!LO:LB:g=original	!	!	!	!	!	!	!	!	!	!
=62	=62	=62	=62	=62	=62	=62	=62	=62	=62	=62	=62	=62	=62	=62
1r	.	8Bn/L	.	8d/L	.	4.G\	-ma-	1r	.	.	8G/L	8G/L	8dd\L	.
.	.	8B/	.	8d/	.	.	.	.	.	.	16G/L	16G/L	8dd\	.
.	.	.	.	.	.	.	.	.	.	.	16G/JJ	16G/JJ	.	.
.	.	8B/	.	8d/	.	.	.	.	.	.	8G/L	8G/L	8dd\	.
.	.	8B/J	.	8d/J	.	8G\	-tu(m)	.	.	.	8G/J	8G/J	8dd\J	.
.	.	2B;/	.	2d;/	.	2G\	est	.	.	.	4G/	2G/	2dd;\	.
!	!	!LO:TX:a:t=7.	!	!	!	!	!	!	!	!	!	!	!LO:TX:a:t=7.	!
.	.	.	.	.	.	.	.	.	.	.	4r	.	.	.
!LO:LB:g=original	!	!LO:PB:g=original	!	!	!	!LO:LB:g=original	!	!LO:LB:g=original	!	!	!	!	!	!
=63||	=63||	=63||	=63||	=63||	=63||	=63||	=63||	=63||	=63||	=63||	=63||	=63||	=63||	=63||
*clefF4	*	*clefG2	*	*	*	*	*	*clefC1	*	*	*	*	*clefG2	*
*k[b-e-a-]	*	*k[a-b-e-]	*	*	*	*	*	*k[a-b-e-]	*	*	*	*	*k[b-a-e-]	*
*M2/4	*	*M2/4	*	*M2/4	*	*	*	*M2/4	*	*	*	*	*M2/4	*
!LO:TX:a:t=P:problem:znaki BB- E- A-	!	!	!	!LO:TX:b:i:t=Et inclinato 	!	!	!	!	!	!	!	!	!	!
!LO:TX:b:i:t=Jn clinato capite	!	!LO:TX:b:i:t=Et inclinato Capite	!	!LO:TX:a:t=Solo	!	!	!	!LO:TX:a:t=P:problem:znaki a- b- ee-	!	!	!	!	!LO:TX:a:t=Solo	!
!LO:TX:a:i:t=Andante solo	!	!LO:TX:a:t=Adante	!	!LO:TX:a:i:rj:t=Andante	!	!LO:TX:a:i:t=Et Inclinato Tacet Canto Solo	!	!LO:TX:a:t=solo	!	!	!LO:TX:a:i:t=Et in clinato \nTacet	!LO:TX:b:i:t=inclinato \nTacet	!LO:TX:a:rj:t=Andante	!
8E-\L	.	16G/LL	.	16e-/LL	.	2ryy	.	0r	.	.	2ryy	2ryy	16ee-\LL	.
.	.	(16B-/	.	16g/	.	.	.	.	.	.	.	.	16gg\	.
8E-\	.	(16B-/)	.	16g/	.	.	.	.	.	.	.	.	16gg\	.
.	.	16d/JJ)	.	16b-/JJ	.	.	.	.	.	.	.	.	16bb-\JJ	.
8E-\	.	(16e-/LL	.	16b-\LL	.	.	.	.	.	.	.	.	16bb-\LL	.
.	.	(16g/)	.	16ee-\	.	.	.	.	.	.	.	.	16ee-\	.
*	*	*	*	*rscale:1/2	*	*	*	*	*	*	*	*	*rscale:1/2	*
8E-\J	.	16g/)	.	24ee-\L	.	.	.	.	.	.	.	.	24ee-\L	.
.	.	.	.	24dd\	.	.	.	.	.	.	.	.	24dd\	.
!	!	!LO:TX:a:t=Solo	!	!	!	!	!	!	!	!	!	!	!	!
.	.	16a-/JJ	.	.	.	.	.	.	.	.	.	.	.	.
.	.	.	.	24cc\JJJ	.	.	.	.	.	.	.	.	24cc\JJJ	.
*	*	*	*	*rscale:1	*	*	*	*	*	*	*	*	*rscale:1	*
=64	=64	=64	=64	=64	=64	=64	=64	=64	=64	=64	=64	=64	=64	=64
!	!	!	!	!LO:TX:a:t=tril	!	!	!	!	!	!	!	!	!	!
8E-\L	.	8a-/L	.	8cc\L	.	2ryy	.	.	.	.	2ryy	2ryy	8cc\L	.
16E-\L	.	8g/J	.	8b-\J	.	.	.	.	.	.	.	.	8b-\J	.
16F\JJ	.	.	.	.	.	.	.	.	.	.	.	.	.	.
8G\L	.	8r	.	16r	.	.	.	.	.	.	.	.	16r	.
!	!	!	!	!LO:TX:t=P:problem:mixed beam	!	!	!	!	!	!	!	!	!LO:TX:t=P:problem:mixed beam	!
.	.	.	.	16ee-\LL	.	.	.	.	.	.	.	.	16ee-\LL	.
8E-\J	.	(16g/LL	.	16ee-\	.	.	.	.	.	.	.	.	16ee-\	.
.	.	16f/JJ)	.	16g/JJ	.	.	.	.	.	.	.	.	16g/JJ	.
!	!	!	!	!	!	!	!	!	!	!	!	!	!LO:LB:g=original	!
=65	=65	=65	=65	=65	=65	=65	=65	=65	=65	=65	=65	=65	=65	=65
8D/L	.	16f/LL	.	16a-/LL	.	2ryy	.	.	.	.	2ryy	2ryy	16aa-\LL	.
.	.	16f/	.	16g/	.	.	.	.	.	.	.	.	16gg\	.
8BB-/	.	16e-/	.	16g/	.	.	.	.	.	.	.	.	16gg\	.
.	.	16g/JJ	.	16b-/JJ	.	.	.	.	.	.	.	.	16bb-\JJ	.
!	!	!	!	!LO:TX:t=P:problem:mixed beam	!	!	!	!	!	!	!	!	!	!
8AA-/	.	8a-/L	.	8cc\L	.	.	.	.	.	.	.	.	8ccc\L	.
8C/J	.	8G/J	.	8d/J	.	.	.	.	.	.	.	.	8cc\J	.
!	!	!	!	!LO:LB:g=original	!	!	!	!	!	!	!	!	!	!
=66	=66	=66	=66	=66	=66	=66	=66	=66	=66	=66	=66	=66	=66	=66
8BB-/L	.	16G/LL	.	16e-/LL	.	2ryy	.	.	.	.	2ryy	2ryy	16ee-\LL	.
.	.	16B-/	.	16d/	.	.	.	.	.	.	.	.	16dd\	.
8BB-/	.	16G/	.	16e-/	.	.	.	.	.	.	.	.	16ee-\	.
.	.	16e-/JJ	.	16f/JJ	.	.	.	.	.	.	.	.	16ff\JJ	.
8BB-/	.	8e-/L	.	8g/L	.	.	.	.	.	.	.	.	8gg\L	.
8BB-/J	.	8d/J	.	8f/J	.	.	.	.	.	.	.	.	8ff\J	.
=67	=67	=67	=67	=67	=67	=67	=67	=67	=67	=67	=67	=67	=67	=67
8F\L	x 7_ 5_	4cc\	.	4ee-T\	.	2ryy	.	0r	.	.	2ryy	2ryy	4ee-\	.
8F\	.	.	.	.	.	.	.	.	.	.	.	.	.	.
8F\	7_ 6_ 5_	16cc\LL	.	16ee-\LL	.	.	.	.	.	.	.	.	16ee-\LL	.
.	.	16b-\	.	16dd\	.	.	.	.	.	.	.	.	16dd\	.
8F\J	.	16an\	.	16cc\	.	.	.	.	.	.	.	.	16cc\	.
.	.	16b-\JJ	.	16b-\JJ	.	.	.	.	.	.	.	.	16b-\JJ	.
!	!	!LO:LB:g=original	!	!	!	!	!	!	!	!	!	!	!	!
=68	=68	=68	=68	=68	=68	=68	=68	=68	=68	=68	=68	=68	=68	=68
8F\L	7_ 5_ n_	8an\	.	16an\LL	.	2ryy	.	.	.	.	2ryy	2ryy	16an\LL	.
.	.	.	.	(16cc\JJ	.	.	.	.	.	.	.	.	16cc\JJ	.
8F\	.	4cc\	.	4ee-\)	.	.	.	.	.	.	.	.	4ee-\	.
8F\	x 6_ 4_	.	.	.	.	.	.	.	.	.	.	.	.	.
8F\J	.	8b-\	.	8dd\	.	.	.	.	.	.	.	.	8dd\	.
!LO:LB:g=original	!	!	!	!	!	!	!	!	!	!	!	!	!	!
=69	=69	=69	=69	=69	=69	=69	=69	=69	=69	=69	=69	=69	=69	=69
8F\L	x 6_ 5_	(16b-\LL	.	(16dd\LL	.	2ryy	.	.	.	.	2ryy	2ryy	16dd\LL	.
.	.	16a-\JJ	.	16cc\JJ)	.	.	.	.	.	.	.	.	16cc\JJ	.
8F\	.	4cc\)	.	4ee-\	.	.	.	.	.	.	.	.	4ee-\	.
8F\	x x 5	.	.	.	.	.	.	.	.	.	.	.	.	.
8F\J	x x 6	8b-\	.	8dd\	.	.	.	.	.	.	.	.	8dd\	.
=70	=70	=70	=70	=70	=70	=70	=70	=70	=70	=70	=70	=70	=70	=70
!LO:TX:t=P:problem:mixed beam	!	!LO:TX:t=P:problem:mixed beam	!	!	!	!	!	!	!	!	!	!	!	!
8E-\L	.	16ee-X\LL	.	16gg\LL	.	2ryy	.	.	.	.	2ryy	2ryy	16gg\LL	.
.	.	16cc\	.	16ee-\JJ	.	.	.	.	.	.	.	.	16ee-\JJ	.
8E-\	.	16b-\	.	24dd\LL	.	.	.	.	.	.	.	.	24dd\LL	.
.	.	.	.	24cc\	.	.	.	.	.	.	.	.	24cc\	.
.	.	16d/JJ	.	.	.	.	.	.	.	.	.	.	.	.
.	.	.	.	24b-\JJ	.	.	.	.	.	.	.	.	24b-\JJ	.
!	!	!	!	!LO:TX:a:t=t	!	!	!	!	!	!	!	!	!	!
8F\	.	8An/L	.	(<4cc\	.	.	.	.	.	.	.	.	4cc\	.
8FF/J	.	8f/J	.	.	.	.	.	.	.	.	.	.	.	.
=71	=71	=71	=71	=71	=71	=71	=71	=71	=71	=71	=71	=71	=71	=71
.	.	.	.	8qqcc/	.	.	.	.	.	.	.	.	8qqcc/	.
16BB-/LL	.	4d/	.	4b-\)	.	2ryy	.	0r	.	.	2ryy	2ryy	4b-\	.
16C/J	.	.	.	.	.	.	.	.	.	.	.	.	.	.
8C/J	.	.	.	.	.	.	.	.	.	.	.	.	.	.
8D/L	.	8r	.	8r	.	.	.	.	.	.	.	.	8r	.
8BB-/J	.	16g/LL	.	16b-/LL	.	.	.	.	.	.	.	.	16b-/LL	.
.	.	16f/JJ	.	16a-/JJ	.	.	.	.	.	.	.	.	16a-/JJ	.
!	!	!	!	!LO:LB:g=original	!	!	!	!	!	!	!	!	!LO:LB:g=original	!
=72	=72	=72	=72	=72	=72	=72	=72	=72	=72	=72	=72	=72	=72	=72
8E-/L	.	16e-/LL	.	16g/LL	.	2ryy	.	.	.	.	2ryy	2ryy	16g/LL	.
.	.	16d/JJ	.	16f/JJ	.	.	.	.	.	.	.	.	16f/JJ	.
8BB-/	.	4f/	.	4a-X/	.	.	.	.	.	.	.	.	4a-X/	.
8BB-/	.	.	.	.	.	.	.	.	.	.	.	.	.	.
8BB-/J	.	8e-/	.	8f/	.	.	.	.	.	.	.	.	8r	.
=73	=73	=73	=73	=73	=73	=73	=73	=73	=73	=73	=73	=73	=73	=73
8BB-/L	.	16e-/LL	.	16g/LL	.	2ryy	.	.	.	.	2ryy	2ryy	16gg\LL	.
.	.	16d/JJ	.	16f/JJ	.	.	.	.	.	.	.	.	16ff\JJ	.
8BB-/	.	4f/	.	4a-/	.	.	.	.	.	.	.	.	4aa-\	.
8BB-/	.	.	.	.	.	.	.	.	.	.	.	.	.	.
8BB-/J	.	16e-/LL	.	16g/LL	.	.	.	.	.	.	.	.	16gg\LL	.
!	!	!	!	!	!	!	!	!	!	!	!	!	!LO:TX:a:t=P:problem:trzy wykreślone takty	!
.	.	16g/JJ	.	16b-/JJ	.	.	.	.	.	.	.	.	16bb-\JJ	.
=74	=74	=74	=74	=74	=74	=74	=74	=74	=74	=74	=74	=74	=74	=74
8E-\	.	8a-/L	.	8cc/L	.	2ryy	.	.	.	.	2ryy	2ryy	8ccc\L	.
8r	.	8f/	.	8b-/	.	.	.	.	.	.	.	.	8bb-\	.
8r	.	8e-/	.	8g/	.	.	.	.	.	.	.	.	8gg\	.
8B-\	.	8d/J	.	8f/J	.	.	.	.	.	.	.	.	8ff\J	.
!	!	!LO:LB:g=original	!	!	!	!	!	!	!	!	!	!	!	!
=75	=75	=75	=75	=75	=75	=75	=75	=75	=75	=75	=75	=75	=75	=75
.	.	.	.	8qqf/	.	.	.	.	.	.	.	.	.	.
!	!	!LO:TX:a:t=Finis	!	!	!	!	!	!	!	!	!	!	!	!
8E-\L	.	4e- 4G/	.	4e-/	.	2ryy	.	2r	.	.	2ryy	2ryy	4ee-\	.
16B-\L	.	.	.	.	.	.	.	.	.	.	.	.	.	.
16c\JJ	.	.	.	.	.	.	.	.	.	.	.	.	.	.
16B-\LL	.	4r	.	4r	.	.	.	.	.	.	.	.	4r	.
16A-X\	.	.	.	.	.	.	.	.	.	.	.	.	.	.
16G\	.	.	.	.	.	.	.	.	.	.	.	.	.	.
!	!	!LO:TX:t=P:problem:podwójna kreska taktowa	!	!	!	!	!	!	!	!	!	!	!	!
16F\JJ	.	.	.	.	.	.	.	.	.	.	.	.	.	.
=76	=76	=76	=76	=76	=76	=76	=76	=76	=76	=76	=76	=76	=76	=76
!	!	!	!LO:DY:b:t=piano	!	!	!	!	!	!	!	!	!	!	!
4E-\	.	8e-/L	p	16G/LL	.	2ryy	.	16e-/LL	Et	.	2ryy	2ryy	16g/LL	.
!	!	!	!	!	!LO:DY:b:t=piano	!	!	!	!	!	!	!	!	!
.	.	.	.	16G/	p	.	.	16g/	.	.	.	.	16g/	.
.	.	8e-/	.	16B-/	.	.	.	16g/	.	.	.	.	16b-/	.
.	.	.	.	16d/JJ	.	.	.	16b-/JJ	.	.	.	.	16dd/JJ	.
4r	.	8e-/	.	(16e-/LL	.	.	.	16b-\LL	in-	.	.	.	16ee-\LL	.
.	.	.	.	16f/	.	.	.	16ee-\JJ	.	.	.	.	16gg\	.
.	.	8e-/J	.	16g/	.	.	.	32ee-\LLL	-cli-	.	.	.	16gg\	.
.	.	.	.	.	.	.	.	32dd\J	.	.	.	.	.	.
.	.	.	.	16a-/JJ)	.	.	.	16cc\JJ	.	.	.	.	16aa-\JJ	.
!LO:LB:g=original	!	!	!	!	!	!	!	!	!	!	!	!	!LO:LB:g=original	!
=77	=77	=77	=77	=77	=77	=77	=77	=77	=77	=77	=77	=77	=77	=77
!LO:TX:a:t=3	!	!	!	!	!	!	!	!	!	!	!	!	!	!
1r	.	8e-/L	.	8a-/L	.	2ryy	.	8cc\	-na-	.	2ryy	2ryy	8aa-\L	.
.	.	16e-/L	.	8g/J	.	.	.	8b-\	-to	.	.	.	8gg\J	.
.	.	16f/JJ	.	.	.	.	.	.	.	.	.	.	.	.
.	.	8g/L	.	8r	.	.	.	8r	.	.	.	.	8r	.
.	.	8e-/J	.	8g/	.	.	.	16ee-\	in-	.	.	.	8gg\	.
.	.	.	.	.	.	.	.	16g\	-cli-	.	.	.	.	.
!	!	!	!	!LO:LB:g=original	!	!	!	!	!	!	!	!	!	!
=78	=78	=78	=78	=78	=78	=78	=78	=78	=78	=78	=78	=78	=78	=78
!	!	!LO:TX:t=P:problem:mixed beam	!	!	!	!	!	!	!	!	!	!	!	!
.	.	8ee-\L	.	8f/L	.	2ryy	.	8a-\	-na-	.	2ryy	2ryy	8ff\L	.
.	.	8e-/	.	16e-/L	.	.	.	(16g\LL	-to	.	.	.	16ee-\L	.
.	.	.	.	16g/JJ	.	.	.	16b-\JJ)	.	.	.	.	16gg\JJ	.
!	!	!	!	!	!	!	!	!	!	!	!	!	!LO:TX:t=P:problem:mixed beam	!
.	.	8a-/	.	8a-/L	.	.	.	8cc\	ca-	.	.	.	8aa-\L	.
.	.	8B-/J	.	8G/J	.	.	.	8e-/	-pi	.	.	.	8b-/J	.
=79	=79	=79	=79	=79	=79	=79	=79	=79	=79	=79	=79	=79	=79	=79
2r	.	8e-/L	.	16G/LL	.	2ryy	.	16e-/LL	te	.	2ryy	2ryy	16g/LL	.
.	.	.	.	16B-/	.	.	.	16d/JJ	.	.	.	.	16b-/	.
.	.	8e-/	.	16G/	.	.	.	16e-/LL	e-	.	.	.	16g/	.
.	.	.	.	16e-/JJ	.	.	.	16g/JJ	.	.	.	.	16ee-/JJ	.
!	!	!	!	!	!	!	!	!LO:LB:g=original	!	!	!	!	!	!
.	.	8B-/	.	8e-/L	.	.	.	8g/	-mi-	.	.	.	8ee-\L	.
.	.	8B-/J	.	8d/J	.	.	.	8f/	-sit	.	.	.	8dd\J	.
=80	=80	=80	=80	=80	=80	=80	=80	=80	=80	=80	=80	=80	=80	=80
!	!	!	!	!LO:TX:a:t=t	!	!	!	!LO:TX:a:t=9	!	!	!	!	!	!
8F\L	7 5	4cc\	.	4ee-\	.	2ryy	.	0r	.	.	2ryy	2ryy	4ee-\	.
8F\	.	.	.	.	.	.	.	.	.	.	.	.	.	.
!	!	!	!LO:DY:b:t=for	!LO:TX:a:t=P:problem:zapis poprawiany	!LO:DY:b	!	!	!	!	!	!	!	!	!
8F\	5	16cc\LL	f	16ee-/LL	f	.	.	.	.	.	.	.	16ee-\LL	.
.	.	16b-\	.	16dd/	.	.	.	.	.	.	.	.	16dd\	.
8F\J	6	16an\	.	16cc/	.	.	.	.	.	.	.	.	16cc\	.
.	.	16b-\JJ	.	16b-/JJ	.	.	.	.	.	.	.	.	16b-\JJ	.
=81	=81	=81	=81	=81	=81	=81	=81	=81	=81	=81	=81	=81	=81	=81
!	!	!LO:SIC:v:s=8a/	!	!	!	!	!	!	!	!	!	!	!	!
8F\L	6_ n5_	8a-/	.	16an\LL	.	2ryy	.	.	.	.	2ryy	2ryy	16an\LL	.
.	.	.	.	16cc\JJ	.	.	.	.	.	.	.	.	16cc\JJ	.
8F\	.	4cc/	.	4ee-\	.	.	.	.	.	.	.	.	4ee-\	.
8F\	.	.	.	.	.	.	.	.	.	.	.	.	.	.
8F\J	6 4	8b-/	.	8dd\	.	.	.	.	.	.	.	.	8dd\	.
=82	=82	=82	=82	=82	=82	=82	=82	=82	=82	=82	=82	=82	=82	=82
8F\L	6 5	16b-/LL	.	16dd\LL	.	2ryy	.	.	.	.	2ryy	2ryy	16dd\LL	.
!	!	!LO:SIC:v:s=16a/JJ	!	!	!	!	!	!	!	!	!	!	!	!
.	.	16a-/JJ	.	16cc\JJ	.	.	.	.	.	.	.	.	16cc\JJ	.
8F\	7 5	4cc/	.	4ee-\	.	.	.	.	.	.	.	.	4ee-\	.
8F\	.	.	.	.	.	.	.	.	.	.	.	.	.	.
8F\J	6 4	8b-/	.	8dd\	.	.	.	.	.	.	.	.	8dd\	.
!	!	!LO:LB:g=original	!	!	!	!	!	!	!	!	!	!	!	!
=83	=83	=83	=83	=83	=83	=83	=83	=83	=83	=83	=83	=83	=83	=83
!LO:TX:t=P:problem:mixed beam	!	!LO:TX:t=P:problem:mixed beam	!	!	!	!	!	!	!	!	!	!	!	!
8E-\L	6 5	16ee-\LL	.	8gg\L	.	2ryy	.	.	.	.	2ryy	2ryy	8gg\L	.
.	.	16cc\	.	.	.	.	.	.	.	.	.	.	.	.
8E-\	.	16b-\	.	(32ee-\LL	.	.	.	.	.	.	.	.	32ee-\LL	.
.	.	.	.	32dd\	.	.	.	.	.	.	.	.	32dd\	.
.	.	16d/JJ	.	32cc\	.	.	.	.	.	.	.	.	32cc\	.
.	.	.	.	32b-\JJJ)	.	.	.	.	.	.	.	.	32b-\JJJ	.
!	!	!	!	!LO:TX:a:t=t	!	!	!	!	!	!	!	!	!	!
8F\	.	8A-/L	.	4cc\	.	.	.	.	.	.	.	.	4cc\	.
8FF/J	n	8f/J	.	.	.	.	.	.	.	.	.	.	.	.
!	!	!	!	!LO:LB:g=original	!	!	!	!	!	!	!	!	!	!
=84	=84	=84	=84	=84	=84	=84	=84	=84	=84	=84	=84	=84	=84	=84
.	.	.	.	8qcc/	.	.	.	.	.	.	.	.	.	.
8BB-/L	.	4d/	.	4b-\	.	2ryy	.	0r	.	.	2ryy	2ryy	8b-\	.
16BB-/L	.	.	.	.	.	.	.	.	.	.	.	.	8r	.
16C/JJ	.	.	.	.	.	.	.	.	.	.	.	.	.	.
8D/L	.	8r	.	8r	.	.	.	.	.	.	.	.	8b-/L	.
8BB-/J	.	16g/LL	.	16b-/LL	.	.	.	.	.	.	.	.	8a-X/J	.
.	.	16f/JJ	.	16a-X/JJ	.	.	.	.	.	.	.	.	.	.
!	!	!	!	!	!	!	!	!	!	!	!	!	!LO:LB:g=original	!
=85	=85	=85	=85	=85	=85	=85	=85	=85	=85	=85	=85	=85	=85	=85
8E-/L	.	16e-/LL	.	16g/LL	.	2ryy	.	.	.	.	2ryy	2ryy	16gg\LL	.
.	.	16d/JJ	.	(16f/JJ	.	.	.	.	.	.	.	.	16ff\JJ	.
8BB-/	7 5	4f/	.	4a-/)	.	.	.	.	.	.	.	.	4aa-\	.
8BB-/	.	.	.	.	.	.	.	.	.	.	.	.	.	.
8BB-/J	6 4	8e-/	.	8g/	.	.	.	.	.	.	.	.	8gg\	.
=86	=86	=86	=86	=86	=86	=86	=86	=86	=86	=86	=86	=86	=86	=86
8BB-/L	3_ 5_	16e-/LL	.	16g/LL	.	2ryy	.	.	.	.	2ryy	2ryy	16gg\LL	.
.	.	16d/JJ	.	16f/JJ	.	.	.	.	.	.	.	.	16ff\JJ	.
8BB-/	.	4f/	.	4a-/	.	.	.	.	.	.	.	.	4aa-\	.
8BB-/	.	.	.	.	.	.	.	.	.	.	.	.	.	.
8BB-/J	6 4	16e-/LL	.	16g/LL	.	.	.	.	.	.	.	.	16gg\LL	.
.	.	16g/JJ	.	16b-/JJ	.	.	.	.	.	.	.	.	16bb-\JJ	.
=87	=87	=87	=87	=87	=87	=87	=87	=87	=87	=87	=87	=87	=87	=87
4E-\	.	8a-/L	.	8cc/L	.	2ryy	.	.	.	.	2ryy	2ryy	8ccc\L	.
.	.	8f/	.	8a-/	.	.	.	.	.	.	.	.	8aa-\	.
8r	.	8e-/	.	8g/	.	.	.	.	.	.	.	.	8gg\	.
8B-\	.	8d/J	.	8f/J	.	.	.	.	.	.	.	.	8ff\J	.
!LO:LB:g=original	!	!	!	!	!	!	!	!	!	!	!	!	!	!
=88	=88	=88	=88	=88	=88	=88	=88	=88	=88	=88	=88	=88	=88	=88
.	.	.	.	8qqf/	.	.	.	.	.	.	.	.	8qqff/	.
8E-\L	.	4e- 4G/	.	4e-/	.	2ryy	.	2r	.	.	2ryy	2ryy	4ee-\	.
16B-\L	6	.	.	.	.	.	.	.	.	.	.	.	.	.
16c\JJ	6	.	.	.	.	.	.	.	.	.	.	.	.	.
16B-\LL	.	4r	.	4r	.	.	.	.	.	.	.	.	4r	.
16A-\	6	.	.	.	.	.	.	.	.	.	.	.	.	.
16G\	6	.	.	.	.	.	.	.	.	.	.	.	.	.
16F\JJ	6	.	.	.	.	.	.	.	.	.	.	.	.	.
=89	=89	=89	=89	=89	=89	=89	=89	=89	=89	=89	=89	=89	=89	=89
!	!	!	!LO:DY:b:t=piano	!	!	!	!	!	!	!	!	!	!	!
4E-\	.	8e-/L	p	16G/LL	.	2ryy	.	16e-/LL	et	.	2ryy	2ryy	16g/LL	.
.	.	.	.	16B-/	.	.	.	16g/	.	.	.	.	16b-/	.
.	.	8e-/	.	16B-/	.	.	.	16g/	.	.	.	.	16b-/	.
.	.	.	.	16e-/JJ	.	.	.	16b-/JJ	.	.	.	.	16ee-/JJ	.
4r	.	8e-/	.	16e-/LL	.	.	.	16b-\LL	in-	.	.	.	16ee-\LL	.
.	.	.	.	16g/	.	.	.	16ee-\JJ	.	.	.	.	16gg\	.
.	.	8e-/J	.	16g/	.	.	.	32ee-\LLL	-cli-	.	.	.	16gg\	.
.	.	.	.	.	.	.	.	32dd\J	.	.	.	.	.	.
.	.	.	.	16a-X/JJ	.	.	.	16cc\JJ	.	.	.	.	16aa-X\JJ	.
!	!	!	!	!LO:LB:g=original	!	!	!	!	!	!	!	!	!	!
=90	=90	=90	=90	=90	=90	=90	=90	=90	=90	=90	=90	=90	=90	=90
!LO:TX:a:t=3	!	!	!	!	!	!	!	!	!	!	!	!	!	!
1r	.	8e-/L	.	8a-/L	.	2ryy	.	8cc\	-na-	.	2ryy	2ryy	8aa-\L	.
.	.	16d/L	.	8g/J	.	.	.	8b-\	-to	.	.	.	8gg\J	.
.	.	16f/JJ	.	.	.	.	.	.	.	.	.	.	.	.
.	.	8g/L	.	8r	.	.	.	8r	.	.	.	.	8r	.
.	.	8e-/J	.	8g/	.	.	.	16ee-\	in-	.	.	.	8gg\	.
.	.	.	.	.	.	.	.	16g\	-cli-	.	.	.	.	.
!	!	!LO:LB:g=original	!	!	!	!	!	!	!	!	!	!	!	!
=91	=91	=91	=91	=91	=91	=91	=91	=91	=91	=91	=91	=91	=91	=91
!	!	!LO:TX:t=P:problem:mixed beam	!	!	!	!	!	!	!	!	!	!	!	!
.	.	8ee-\L	.	8f/L	.	2ryy	.	8a-\	-na-	.	2ryy	2ryy	8ff\L	.
.	.	8e-/	.	16e-/L	.	.	.	(16g\LL	-to	.	.	.	16ee-\L	.
.	.	.	.	16g/JJ	.	.	.	16b-\JJ)	.	.	.	.	16gg\JJ	.
!	!	!	!	!	!	!	!	!	!	!	!	!	!LO:TX:t=P:problem:mixed beam	!
.	.	8a-/	.	8a-/L	.	.	.	8cc\	ca-	.	.	.	8aa-\L	.
.	.	8B-/J	.	8G/J	.	.	.	8e-/	-pi-	.	.	.	8a-/J	.
=92	=92	=92	=92	=92	=92	=92	=92	=92	=92	=92	=92	=92	=92	=92
2r	.	8e-/L	.	16G/LL	.	2ryy	.	16e-/LL	-te	.	2ryy	2ryy	16g/LL	.
.	.	.	.	16B-/	.	.	.	16d/JJ	.	.	.	.	16b-/	.
.	.	8e-/	.	16G/	.	.	.	16e-/LL	e-	.	.	.	16g/	.
.	.	.	.	16e-/JJ	.	.	.	16g/JJ	.	.	.	.	16ee-/JJ	.
.	.	8B-/	.	8e-/L	.	.	.	8g/	-mi-	.	.	.	8ee-\L	.
.	.	8B-/J	.	8d/J	.	.	.	8f/	-sit	.	.	.	8ff\J	.
!	!	!	!	!	!	!	!	!LO:LB:g=original	!	!	!	!	!LO:LB:g=original	!
=93	=93	=93	=93	=93	=93	=93	=93	=93	=93	=93	=93	=93	=93	=93
!	!	!	!	!LO:TX:a:t=t	!	!	!	!	!	!	!	!	!	!
8F\L	7- 5_	4cc\	.	4ee-\	.	2ryy	.	4ee-\	e-	.	2ryy	2ryy	4ee-\	.
8F\	.	.	.	.	.	.	.	.	.	.	.	.	.	.
8F\	5	16cc\LL	.	16ee-\LL	.	.	.	(16ee-\LL	-mi-	.	.	.	16ee-\LL	.
!	!	!	!	!	!LO:DY:b:t=pia	!	!	!	!	!	!	!	!	!
.	.	16b-\JJ	.	16dd\	p	.	.	16dd\JJ)	.	.	.	.	16dd\	.
8F\J	6	16an\LL	.	16cc\	.	.	.	(16cc\LL	-sit	.	.	.	16cc\	.
.	.	16b-\JJ	.	16b-\JJ	.	.	.	16b-\JJ)	.	.	.	.	16b-\JJ	.
=94	=94	=94	=94	=94	=94	=94	=94	=94	=94	=94	=94	=94	=94	=94
!LO:TX:t=P:problem:mixed beam	!	!	!	!	!	!	!	!	!	!	!	!	!	!
8F\L	.	16f/LL	.	8an\L	.	2ryy	.	16an\	Spi-	.	2ryy	2ryy	8an\L	.
.	.	16g/J	.	.	.	.	.	16b-\	-ri-	.	.	.	.	.
8F\	.	8an/J	.	16b-\L	.	.	.	8cc\	-tum	.	.	.	16b-\L	.
.	.	.	.	16cc\JJ	.	.	.	.	.	.	.	.	16cc\JJ	.
8BB-/	6	8dd\L	.	8ff\L	.	.	.	8ff\	in-	.	.	.	8ff\L	.
8BB-/J	6	8dd\J	.	8ff\J	.	.	.	8ff\	-cli-	.	.	.	8ff\J	.
=95	=95	=95	=95	=95	=95	=95	=95	=95	=95	=95	=95	=95	=95	=95
!LO:TX:t=P:problem:mixed beam	!	!	!	!	!	!	!	!	!	!	!	!	!	!
8BB-/L	.	8dd\L	.	8ff\L	.	2ryy	.	8ff\	-na-	.	2ryy	2ryy	8ff\L	.
8BB-/	.	16cc\L	.	16ee-\L	.	.	.	(16ee-\LL	-to	.	.	.	16ee-\L	.
.	.	16b-\JJ	.	16dd\JJ	.	.	.	16dd\JJ)	.	.	.	.	16dd\JJ	.
8G\	6	8cc\L	.	8ee-\L	.	.	.	8ee-\	ca-	.	.	.	8ee-\L	.
8G\J	6	8b-\J	.	8ee-\J	.	.	.	8dd\	-pi-	.	.	.	8ee-\J	.
!	!	!	!	!LO:LB:g=original	!	!	!	!	!	!	!	!	!	!
=96	=96	=96	=96	=96	=96	=96	=96	=96	=96	=96	=96	=96	=96	=96
8An\L	.	8an/L	.	8cc\L	.	2ryy	.	8cc\	-te	.	2ryy	2ryy	8cc\L	.
!	!	!	!LO:DY:b:t=pia	!	!	!	!	!	!	!	!	!	!	!
8F\J	.	8a/	p	8cc\	.	.	.	8cc\	e-	.	.	.	8cc\	.
4r	.	8b-/	.	8dd\	.	.	.	8dd\	-mi-	.	.	.	8dd\	.
.	.	8cc/J	.	8ee-\J	.	.	.	8ee-\	-sit	.	.	.	8ee-\J	.
=97	=97	=97	=97	=97	=97	=97	=97	=97	=97	=97	=97	=97	=97	=97
!LO:TX:t=P:problem:mixed beam	!	!	!	!	!	!	!	!	!	!	!	!	!	!
8B-\L	.	16b-/LL	.	8dd\L	.	2ryy	.	8.dd\L	spi-	.	2ryy	2ryy	8dd\L	.
.	.	16e-/J	.	.	.	.	.	.	.	.	.	.	.	.
8E-\	.	8d/J	.	16cc\L	.	.	.	.	.	.	.	.	16cc\L	.
.	.	.	.	16b-\JJ	.	.	.	32cc\LL	.	.	.	.	16b-\JJ	.
.	.	.	.	.	.	.	.	32b-\JJJ	.	.	.	.	.	.
8F\	.	8An/L	.	4ccT\	.	.	.	8.cc\	-ri-	.	.	.	4ccT\	.
8FF/J	.	8e-/J	.	.	.	.	.	.	.	.	.	.	.	.
*custos:BB	*	*	*	*	*	*	*	*	*	*	*	*	*	*
.	.	.	.	.	.	.	.	16cc\	-tum	.	.	.	.	.
!LO:LB:g=original	!	!LO:LB:g=original	!	!	!	!	!	!LO:LB:g=original	!	!	!	!	!	!
=98	=98	=98	=98	=98	=98	=98	=98	=98	=98	=98	=98	=98	=98	=98
!	!	!	!	!LO:TX:t=P:problem:mixed beam	!	!	!	!	!	!	!	!	!	!
8BB-/L	.	8d/L	.	8cc\L	.	2ryy	.	8b-\	tu(m)	.	2ryy	2ryy	8ccc\L	.
8FF/J	.	8An/	.	8c/	.	.	.	8c/	e-	.	.	.	8cc\	.
4r	.	8B-/	.	8e-/	.	.	.	8d/	-mi-	.	.	.	8ee-\	.
.	.	8c/J	.	8g/J	.	.	.	8e-/	-sit	.	.	.	8gg\J	.
=99	=99	=99	=99	=99	=99	=99	=99	=99	=99	=99	=99	=99	=99	=99
!LO:TX:t=P:problem:mixed beam	!	!	!	!LO:TX:t=P:problem:mixed beam	!	!	!	!	!	!	!	!	!LO:TX:t=P:problem:mixed beam	!
8BB-\L	.	8B-/L	.	8d/L	.	2ryy	.	8.d/L	Spi-	.	2ryy	2ryy	8d/L	.
8E-\	.	8c/	.	8b-\	.	.	.	.	.	.	.	.	8b-\	.
.	.	.	.	.	.	.	.	32c/LL	.	.	.	.	.	.
.	.	.	.	.	.	.	.	32B-/JJJ	.	.	.	.	.	.
8F\	.	8d/	.	8cc\	.	.	.	8c/	.	.	.	.	8cc\	.
8FF/J	.	8B-/J	.	8an\J	.	.	.	8c/	-ri-	.	.	.	8an\J	.
=100	=100	=100	=100	=100	=100	=100	=100	=100	=100	=100	=100	=100	=100	=100
8BB-/L	.	8d/	.	8b-\	.	2ryy	.	8B-/	-tum	.	2ryy	2ryy	8b-\	.
8BB-/	.	4dd\	.	4ff\	.	.	.	8ff\	e-	.	.	.	4ff\	.
8BB-/	.	.	.	.	.	.	.	8ff\L	-mi-	.	.	.	.	.
8BB-/J	.	16cc\LL	.	(16ee-\LL	.	.	.	16ee-\L	.	.	.	.	16ee-\LL	.
.	.	16b-\JJ	.	16dd\JJ)	.	.	.	16dd\JJ	.	.	.	.	16dd\JJ	.
=101	=101	=101	=101	=101	=101	=101	=101	=101	=101	=101	=101	=101	=101	=101
.	.	8qqb-/	.	8qqdd/	.	.	.	8qqdd/	.	.	.	.	8qqdd/	.
8F\L	.	4a-\	.	4cc\	.	2ryy	.	4cc\	-sit	.	2ryy	2ryy	4cc\	.
16F\L	.	.	.	.	.	.	.	.	.	.	.	.	.	.
16G\JJ	.	.	.	.	.	.	.	.	.	.	.	.	.	.
8An\L	.	8r	.	8r	.	.	.	8r	.	.	.	.	8r	.
8F\J	.	8an\	.	8cc\	.	.	.	8cc\	E-	.	.	.	8cc\	.
!	!	!	!	!	!	!	!	!	!	!	!	!	!LO:LB:g=original	!
=102	=102	=102	=102	=102	=102	=102	=102	=102	=102	=102	=102	=102	=102	=102
!LO:TX:t=P:problem:mixed beam	!	!	!	!	!	!	!	!	!	!	!	!	!	!
8B-\L	.	16b-\LL	.	16dd\LL	.	2ryy	.	16dd\LL	-mi-	.	2ryy	2ryy	16dd\LL	.
.	.	16a-\JJ	.	(16cc\JJ	.	.	.	16cc\JJ	.	.	.	.	16cc\JJ	.
8BB-/	.	4b-\	.	4dd\	.	.	.	4dd\	.	.	.	.	4dd\	.
8BB-/	.	.	.	.	.	.	.	.	.	.	.	.	.	.
8BB-/J	.	16cc\LL	.	16ee-\LL)	.	.	.	16ee-\LL	.	.	.	.	16ee-\LL	.
.	.	16b-\JJ	.	16dd\JJ	.	.	.	16dd\JJ	.	.	.	.	16dd\JJ	.
!	!	!	!	!LO:LB:g=original	!	!	!	!	!	!	!	!	!	!
=103	=103	=103	=103	=103	=103	=103	=103	=103	=103	=103	=103	=103	=103	=103
8FF/	n	8an\L	.	8cc\L	.	2ryy	.	8cc\	-sit	.	2ryy	2ryy	8cc\L	.
8r	.	8ee-\	.	8gg\	.	.	.	8gg\	e-	.	.	.	8gg\	.
4r	.	8dd\	.	8ff\	.	.	.	8ff\	-mi-	.	.	.	8ff\	.
.	.	8cc\J	.	8ee-\J	.	.	.	8ee-\	-sit	.	.	.	8ee-\J	.
!	!	!	!	!	!	!	!	!LO:LB:g=original	!	!	!	!	!	!
=104	=104	=104	=104	=104	=104	=104	=104	=104	=104	=104	=104	=104	=104	=104
!LO:TX:t=P:problem:mixed beam	!	!	!	!	!	!	!	!	!	!	!	!	!	!
8BB-/L	.	16b-/LL	.	8dd\L	.	2ryy	.	8dd\	in-	.	2ryy	2ryy	8dd\L	.
.	.	16an/J	.	.	.	.	.	.	.	.	.	.	.	.
8BB-/	.	8b-/J	.	16cc\L	.	.	.	16cc\LL	.	.	.	.	16cc\L	.
.	.	.	.	16dd\JJ	.	.	.	16dd\JJ	-cli-	.	.	.	16dd\JJ	.
8G\	.	8cc/L	.	8ee-\L	.	.	.	8ee-\	-na-	.	.	.	8ee-\L	.
8G\J	.	8b-/J	.	8dd\J	.	.	.	8dd\	-to	.	.	.	8dd\J	.
!	!	!LO:LB:g=original	!	!	!	!	!	!	!	!	!	!	!	!
=105	=105	=105	=105	=105	=105	=105	=105	=105	=105	=105	=105	=105	=105	=105
8F\L	.	16b-/LL	.	24dd\LL	.	2ryy	.	16dd\	Ca-	.	2ryy	2ryy	16dd\LL	.
.	.	.	.	24cc\	.	.	.	.	.	.	.	.	.	.
.	.	16an/JJ	.	.	.	.	.	16cc\	-pi-	.	.	.	16cc\JJ	.
!	!	!	!	!LO:TX:a:t=c	!	!	!	!	!	!	!	!	!	!
.	.	.	.	24dd\JJ	.	.	.	.	.	.	.	.	.	.
16F\L	.	4a/	.	4cc\	.	.	.	8cc\	-te	.	.	.	4cc\	.
16G\JJ	.	.	.	.	.	.	.	.	.	.	.	.	.	.
!LO:SIC:v:s=8An\L	!	!	!	!	!	!	!	!	!	!	!	!	!	!
8A-\L	.	.	.	.	.	.	.	8r	.	.	.	.	.	.
8F\J	.	8f/	.	8f/	.	.	.	8f/	e-	.	.	.	8f/	.
!LO:LB:g=original	!	!	!	!	!	!	!	!	!	!	!	!	!	!
=106	=106	=106	=106	=106	=106	=106	=106	=106	=106	=106	=106	=106	=106	=106
!LO:TX:t=P:problem:mixed beam	!	!	!	!	!	!	!	!	!	!	!	!	!	!
8E-\L	.	16e-/LL	.	16g/LL	.	2ryy	.	16g\LL	-mi-	.	2ryy	2ryy	16g/LL	.
.	.	16c/	.	16an/	.	.	.	16an\JJ	.	.	.	.	16an/	.
8E-\	.	16d/	.	16b-/	.	.	.	(16b-\LL	-sit	.	.	.	16b-/	.
.	.	16e-/JJ	.	16cc/JJ	.	.	.	16cc\JJ)	.	.	.	.	16cc/JJ	.
8F\	.	8f/L	.	8dd\L	.	.	.	8dd\	spi-	.	.	.	8dd\L	.
8FF/J	.	8e-/J	.	8cc\J	.	.	.	8cc\	-ri-	.	.	.	8cc\J	.
=107	=107	=107	=107	=107	=107	=107	=107	=107	=107	=107	=107	=107	=107	=107
.	.	.	.	.	.	.	.	8qqcc/	.	.	.	.	.	.
!	!	!	!	!	!LO:DY:b:rj	!	!	!	!	!	!	!	!	!
8BB-/L	.	16d/LL	.	16b-\LL	f	2ryy	.	4b-\	-tum	.	2ryy	2ryy	16b-\LL	.
.	.	16f/	.	16dd\	.	.	.	.	.	.	.	.	16dd\	.
8BB-/	.	16f/	.	16dd\	.	.	.	.	.	.	.	.	16dd\	.
.	.	16b-/JJ	.	16ff\JJ	.	.	.	.	.	.	.	.	16ff\JJ	.
8BB-/	.	(16b-\LL	.	16ff\LL	.	.	.	4r	.	.	.	.	16ff\LL	.
.	.	16dd\)	.	16bb-\	.	.	.	.	.	.	.	.	16bb-\	.
8BB-/J	.	(16dd\	.	16bb-\	.	.	.	.	.	.	.	.	16bb-\	.
.	.	16ee-\JJ)	.	32aan\L	.	.	.	.	.	.	.	.	32aan\L	.
.	.	.	.	32gg\JJJ	.	.	.	.	.	.	.	.	32gg\JJJ	.
!	!	!	!	!LO:LB:g=original	!	!	!	!	!	!	!	!	!	!
=108	=108	=108	=108	=108	=108	=108	=108	=108	=108	=108	=108	=108	=108	=108
!	!	!	!	!	!	!	!	!LO:TX:a:t=8	!	!	!	!	!	!
8BB-/L	.	8ee-\L	.	8gg\L	.	2ryy	.	0r	.	.	2ryy	2ryy	8gg\L	.
16BB-/L	.	8dd\J	.	8ff\J	.	.	.	.	.	.	.	.	8ff\J	.
16C/JJ	.	.	.	.	.	.	.	.	.	.	.	.	.	.
8D/L	.	8r	.	16r	.	.	.	.	.	.	.	.	16r	.
.	.	.	.	16bb-\LL	.	.	.	.	.	.	.	.	16bb-\LL	.
8BB-/J	.	16dd\LL	.	16bb-\	.	.	.	.	.	.	.	.	16bb-\	.
!	!	!	!	!LO:TX:a:t=d	!	!	!	!	!	!	!	!	!	!
.	.	16b-\JJ	.	16dd\JJ	.	.	.	.	.	.	.	.	16dd\JJ	.
!	!	!	!	!	!	!	!	!	!	!	!	!	!LO:LB:g=original	!
=109	=109	=109	=109	=109	=109	=109	=109	=109	=109	=109	=109	=109	=109	=109
8AAn/L	.	16cc\LL	.	(16ee-\LL	.	2ryy	.	.	.	.	2ryy	2ryy	16ee-\LL	.
.	.	16b-\	.	16dd\	.	.	.	.	.	.	.	.	16dd\	.
8BB-/J	.	16b-\	.	16dd\	.	.	.	.	.	.	.	.	16dd\	.
.	.	16dd\JJ	.	16ff\JJ)	.	.	.	.	.	.	.	.	16ff\JJ	.
!	!	!LO:TX:t=P:problem:mixed beam	!	!LO:TX:t=P:problem:mixed beam	!	!	!	!	!	!	!	!	!LO:TX:t=P:problem:mixed beam	!
8C\L	.	8ee-\L	.	8gg\L	.	.	.	.	.	.	.	.	8gg\L	.
8E-\J	.	8e-/J	.	8b-/J	.	.	.	.	.	.	.	.	8g/J	.
=110	=110	=110	=110	=110	=110	=110	=110	=110	=110	=110	=110	=110	=110	=110
!LO:TX:t=P:problem:mixed beam	!	!	!	!	!	!	!	!	!	!	!	!	!	!
8F\L	.	16d/LL	.	(16b-\LL	.	2ryy	.	.	.	.	2ryy	2ryy	16b-/LL	.
.	.	16c/	.	16an\	.	.	.	.	.	.	.	.	16an/	.
8FF/	.	16d/	.	16b-\	.	.	.	.	.	.	.	.	16b-/	.
.	.	16b-/JJ	.	16dd\JJ)	.	.	.	.	.	.	.	.	16dd/JJ	.
8FF/	.	8b-/L	.	8dd\L	.	.	.	.	.	.	.	.	8dd\L	.
8FF/J	.	8an/J	.	8cc\J	.	.	.	.	.	.	.	.	8cc\J	.
=111	=111	=111	=111	=111	=111	=111	=111	=111	=111	=111	=111	=111	=111	=111
4FF/	.	4cc\	.	4ee-T\	.	2ryy	.	.	.	.	2ryy	2ryy	4ee-\	.
4r	.	16cc\LL	.	16ee-\LL	.	.	.	.	.	.	.	.	16ee-\LL	.
.	.	16b-\	.	16dd\	.	.	.	.	.	.	.	.	16dd\	.
!	!	!LO:SIC:v:s=16an\	!	!	!	!	!	!	!	!	!	!	!	!
.	.	16a-\	.	16cc\	.	.	.	.	.	.	.	.	16cc\	.
.	.	16b-\JJ	.	16b-\JJ	.	.	.	.	.	.	.	.	16b-\JJ	.
!	!	!LO:LB:g=original	!	!	!	!	!	!	!	!	!	!	!	!
=112	=112	=112	=112	=112	=112	=112	=112	=112	=112	=112	=112	=112	=112	=112
8F\L	n_	16f/LL	.	16an/LL	.	2ryy	.	0r	.	.	2ryy	2ryy	16an/LL	.
.	.	16g/JJ	.	16b-/JJ	.	.	.	.	.	.	.	.	16b-/JJ	.
!	!	!LO:SIC:v:s=4an/	!	!	!	!	!	!	!	!	!	!	!	!
8F\	.	4a-/	.	4cc/	.	.	.	.	.	.	.	.	4cc\	.
8F\	.	.	.	.	.	.	.	.	.	.	.	.	.	.
8F\J	.	8f/	.	8f/	.	.	.	.	.	.	.	.	8f/	.
=113	=113	=113	=113	=113	=113	=113	=113	=113	=113	=113	=113	=113	=113	=113
8F\L	x n5	8an/	.	8cc\	.	2ryy	.	.	.	.	2ryy	2ryy	8cc\	.
8F\	7_ 5_	4cc/	.	4ee-\	.	.	.	.	.	.	.	.	4ee-\	.
8F\	.	.	.	.	.	.	.	.	.	.	.	.	.	.
8F\J	6 4	8b-/	.	8dd\	.	.	.	.	.	.	.	.	8dd\	.
!	!	!	!	!LO:LB:g=original	!	!	!	!	!	!	!	!	!	!
=114	=114	=114	=114	=114	=114	=114	=114	=114	=114	=114	=114	=114	=114	=114
8F\L	5 n	16b-\LL	.	16dd\LL	.	2ryy	.	.	.	.	2ryy	2ryy	16dd\LL	.
!	!	!LO:SIC:v:s=16an/JJ	!	!	!	!	!	!	!	!	!	!	!	!
.	.	16a-\JJ	.	16cc\JJ	.	.	.	.	.	.	.	.	16cc\JJ	.
8F\	7_ 5_	4cc\	.	4ee-\	.	.	.	.	.	.	.	.	4ee-\	.
8F\	.	.	.	.	.	.	.	.	.	.	.	.	.	.
8F\J	6 4	8b-\	.	8dd\	.	.	.	.	.	.	.	.	8dd\	.
!LO:LB:g=original	!	!	!	!	!	!	!	!	!	!	!	!	!	!
=115	=115	=115	=115	=115	=115	=115	=115	=115	=115	=115	=115	=115	=115	=115
!LO:TX:t=P:problem:mixed beam	!	!LO:TX:t=P:problem:mixed beam	!	!	!	!	!	!	!	!	!	!	!	!
8BB-\L	.	16ee-\LL	.	16gg\LL	.	2ryy	.	.	.	.	2ryy	2ryy	16gg\LL	.
.	.	16cc\	.	16ee-\JJ	.	.	.	.	.	.	.	.	16ee-\JJ	.
*	*	*	*	*tuplet	*	*	*	*	*	*	*	*	*	*
8E-\	6 5	16b-\	.	24dd\LL	.	.	.	.	.	.	.	.	24dd\LL	.
.	.	.	.	24cc\	.	.	.	.	.	.	.	.	24cc\	.
.	.	16d/JJ	.	.	.	.	.	.	.	.	.	.	.	.
.	.	.	.	24b-\JJ	.	.	.	.	.	.	.	.	24b-\JJ	.
8F\	.	8c/L	.	4ccT\	.	.	.	.	.	.	.	.	4cc\	.
8FF/J	.	16f/L	.	.	.	.	.	.	.	.	.	.	.	.
.	.	16d/JJ	.	.	.	.	.	.	.	.	.	.	.	.
=116	=116	=116	=116	=116	=116	=116	=116	=116	=116	=116	=116	=116	=116	=116
.	.	.	.	8qcc/	.	.	.	.	.	.	.	.	.	.
8BB-\L	.	8d/L	.	8b-\L	.	2ryy	.	8r	.	.	2ryy	2ryy	8b-\L	.
8E-\	5 3	8g/	.	8b-\J	.	.	.	8b-X\	Et	.	.	.	8b-\	.
8E-\	-6 4	8a-X/	.	8cc\L	.	.	.	8cc\	in-	.	.	.	8cc\	.
8BB-\J	.	8f/J	.	8dd\J	.	.	.	8dd\	-cli-	.	.	.	8dd\J	.
!	!	!	!	!	!	!	!	!LO:LB:g=original	!	!	!	!	!LO:LB:g=original	!
=117	=117	=117	=117	=117	=117	=117	=117	=117	=117	=117	=117	=117	=117	=117
8r	.	8r	.	8r	.	2ryy	.	4ee-T\	-na-	.	2ryy	2ryy	8r	.
8EE-/L	.	8g/L	.	8b-\L	.	.	.	.	.	.	.	.	8b-\L	.
8EE-/	.	8g/	.	8b-\	.	.	.	4ee-T\	-to	.	.	.	8b-\	.
8EE-/J	.	8g/J	.	8b-\J	.	.	.	.	.	.	.	.	8b-\J	.
=118	=118	=118	=118	=118	=118	=118	=118	=118	=118	=118	=118	=118	=118	=118
!LO:TX:t=P:problem:mixed beam	!	!	!	!	!	!	!	!	!	!	!	!	!	!
8E-\L	6	8b-X/L	.	8gg\L	.	2ryy	.	8gg\	in-	.	2ryy	2ryy	8gg\L	.
8E-\	5	16cc/L	.	16aa-\L	.	.	.	16aa-\LL	-cli-	.	.	.	16aa-\L	.
.	.	16b-/JJ	.	16gg\JJ	.	.	.	16gg\JJ	.	.	.	.	16gg\JJ	.
8AA-/	6	8a-X/L	.	8ff\L	.	.	.	8ff\	-na-	.	.	.	8ff\L	.
8AA-/J	5	8g/J	.	8ee-\J	.	.	.	8ee-\	-to	.	.	.	8ee-\J	.
!	!	!LO:LB:g=original	!	!	!	!	!	!	!	!	!	!	!	!
=119	=119	=119	=119	=119	=119	=119	=119	=119	=119	=119	=119	=119	=119	=119
8BB-/L	.	16g/LL	.	8ee-\L	.	2ryy	.	16ee-\	Ca-	.	2ryy	2ryy	8ee-\L	.
.	.	16f/J	.	.	.	.	.	16dd\	-pi-	.	.	.	.	.
16BB-/L	.	8f/J	.	16dd\L	.	.	.	8dd\	-te	.	.	.	16dd\L	.
16C/JJ	.	.	.	16dd\JJ	.	.	.	.	.	.	.	.	16dd\JJ	.
8D/L	.	8r	.	8r	.	.	.	8r	.	.	.	.	8r	.
8BB-/J	.	8ff\	.	8aa-\	.	.	.	8aa-\	e-	.	.	.	8aa-\	.
!	!	!	!	!LO:LB:g=original	!	!	!	!	!	!	!	!	!	!
=120	=120	=120	=120	=120	=120	=120	=120	=120	=120	=120	=120	=120	=120	=120
8D/L	.	8f/L	.	8aa-\L	.	2ryy	.	8aa-\	-mi-	.	2ryy	2ryy	8aa-\L	.
8D/	.	8f/	.	8b-\	.	.	.	8b-\	-sit	.	.	.	8b-\	.
8BB-/	5 3	8f/	.	8dd\	.	.	.	8dd\	spi-	.	.	.	8dd\	.
8BB-/J	.	8g/J	.	8ee-\J	.	.	.	8ee-\	-ri-	.	.	.	8ee-\J	.
=121	=121	=121	=121	=121	=121	=121	=121	=121	=121	=121	=121	=121	=121	=121
!	!	!	!	!LO:TX:t=P:problem:mixed beam	!	!	!	!	!	!	!	!	!LO:TX:t=P:problem:mixed beam	!
8BB-/L	7_ 5_	8a-X/L	.	8ff\L	.	2ryy	.	8ff\	-tum	.	2ryy	2ryy	8ff\L	.
!	!	!	!	!	!LO:DY:b:t=p.	!	!	!	!	!	!	!	!	!
8BB-/	.	8d/	.	8f/	p	.	.	8a-/	e-	.	.	.	8f/	.
!	!	!	!	!	!	!	!	!LO:TX:a:t=t	!	!	!	!	!	!
8BB-/	.	8d/	.	8f/	.	.	.	4a-/	-mi-	.	.	.	8f/	.
8BB-/J	X X	8d/J	.	8f/J	.	.	.	.	.	.	.	.	8f/J	.
=122	=122	=122	=122	=122	=122	=122	=122	=122	=122	=122	=122	=122	=122	=122
!	!	!LO:TX:t=P:problem:mixed beam	!	!LO:TX:t=P:problem:mixed beam	!	!	!	!	!	!	!	!	!LO:TX:t=P:problem:mixed beam	!
8E-\	.	8e-/L	.	8e-/L	.	2ryy	.	8g\	-sit	.	2ryy	2ryy	8e-/L	.
8r	.	8dd\	.	8ff\	.	.	.	8ff\	Et	.	.	.	8ff\	.
4r	.	8dd\	.	8ff\	.	.	.	8ff\	in-	.	.	.	8ff\	.
.	.	8ee-\J	.	8gg\J	.	.	.	8gg\	-cli-	.	.	.	8gg\J	.
!	!	!	!	!	!	!	!	!LO:LB:g=original	!	!	!	!	!	!
=123	=123	=123	=123	=123	=123	=123	=123	=123	=123	=123	=123	=123	=123	=123
8BB-/L	7	16ff\LL	.	16aa-\LL	.	2ryy	.	16aa-\LL	-na-	.	2ryy	2ryy	16aa-\LL	.
.	.	16ee-\JJ	.	16gg\JJ	.	.	.	16gg\JJ	.	.	.	.	16gg\JJ	.
8BB-/	.	4ff\	.	4aa-\	.	.	.	8aa-\	-to	.	.	.	4aa-\	.
8BB-/	6 4	.	.	.	.	.	.	8aa-\	ca-	.	.	.	.	.
8BB-/J	.	8ee-\	.	8gg\	.	.	.	8gg\	-pi-	.	.	.	8gg\	.
!LO:LB:g=original	!	!	!	!	!	!	!	!	!	!	!	!	!	!
=124	=124	=124	=124	=124	=124	=124	=124	=124	=124	=124	=124	=124	=124	=124
!	!	!LO:TX:t=P:problem:mixed beam	!	!	!	!	!	!	!	!	!	!	!	!
8BB-/	.	8dd\L	.	8ff\L	.	2ryy	.	8ff\	-te	.	2ryy	2ryy	8ff\L	.
8r	.	8g/	.	8b-\	.	.	.	8b-\	e-	.	.	.	8b-\	.
4r	.	8a-/	.	8cc\	.	.	.	8cc\	-mi-	.	.	.	8cc\	.
.	.	8g/J	.	8dd\J	.	.	.	8dd\	-sit	.	.	.	8dd\J	.
!	!	!LO:LB:g=original	!	!	!	!	!	!	!	!	!	!	!	!
=125	=125	=125	=125	=125	=125	=125	=125	=125	=125	=125	=125	=125	=125	=125
8r	.	8g/L	.	8ee-\L	.	2ryy	.	8.ee-\	spiri-	.	2ryy	2ryy	8ee-\L	.
8E-\L	.	8g/	.	8b-\	.	.	.	.	.	.	.	.	8b-\	.
.	.	.	.	.	.	.	.	16ee-\	-tum	.	.	.	.	.
8E-\	.	8g/	.	8b-\	.	.	.	8ee-\	.	.	.	.	8b-\	.
8E-\J	.	8g/J	.	8b-\J	.	.	.	8b-\	e-	.	.	.	8b-\J	.
!	!	!	!	!	!	!	!	!	!	!	!	!	!LO:LB:g=original	!
=126	=126	=126	=126	=126	=126	=126	=126	=126	=126	=126	=126	=126	=126	=126
!LO:TX:a:t=1.	!	!	!	!	!	!	!	!	!	!	!	!	!	!
2r	.	4f/	.	4a-/	.	2ryy	.	4a-\	-mi-	.	2ryy	2ryy	4a-/	.
!	!	!LO:TX:b:i:t=Da Capo et Inclinato \nad Signum Finiſ	!	!	!	!	!	!	!	!	!	!	!	!
!	!	!LO:TX:t=P:problem:podwójna kreska taktowa	!	!	!	!	!	!	!	!	!	!	!	!
.	.	4e-/	.	4g/	.	.	.	4g;\	-ſit	.	.	.	4g/	.
=127	=127	=127	=127	=127	=127	=127	=127	=127	=127	=127	=127	=127	=127	=127
!	!	!	!	!	!LO:DY:b:t=for	!	!	!LO:TX:a:t=13	!	!	!	!	!	!
8E-\L	.	16G/LLyy	.	16e-/LL	f	2ryy	.	0r	.	.	2ryy	2ryy	16e-/LL	.
.	.	(y16B-/yy	.	16g/	.	.	.	.	.	.	.	.	16g/	.
8E-\	.	(y16B-/)yy	.	16g/	.	.	.	.	.	.	.	.	16g/	.
.	.	16d/JJ)yy	.	16b-/JJ	.	.	.	.	.	.	.	.	16b-/JJ	.
8E-\	.	(y16e-/LLyy	.	16b-\LL	.	.	.	.	.	.	.	.	16b-\LL	.
.	.	(y16g/)yy	.	(16ee-\	.	.	.	.	.	.	.	.	16ee-\	.
8E-\J	.	16g/)yy	.	16ee-\	.	.	.	.	.	.	.	.	16ee-\	.
.	.	16a-/JJyy	.	32dd\L	.	.	.	.	.	.	.	.	32dd\L	.
.	.	.	.	32cc\JJJ)	.	.	.	.	.	.	.	.	32cc\JJJ	.
!	!	!	!	!LO:LB:g=original	!	!	!	!	!	!	!	!	!	!
=128	=128	=128	=128	=128	=128	=128	=128	=128	=128	=128	=128	=128	=128	=128
8E-\L	.	8a-/Lyy	.	8cc\L	.	2ryy	.	.	.	.	2ryy	2ryy	8cc\L	.
16E-\L	.	8g/Jyy	.	8b-\J	.	.	.	.	.	.	.	.	8b-\J	.
16F\JJ	.	.	.	.	.	.	.	.	.	.	.	.	.	.
!	!	!	!	!	!	!	!	!	!	!	!	!	!LO:N:vis=8	!
8G\L	6	8ryy	.	16r	.	.	.	.	.	.	.	.	16r	.
!	!	!	!	!LO:TX:t=P:problem:mixed beam	!	!	!	!	!	!	!	!	!LO:TX:t=P:problem:mixed beam	!
.	.	.	.	16ee-\LL	.	.	.	.	.	.	.	.	16ee-\LL	.
8E-\J	.	(y16g/LLyy	.	16ee-\	.	.	.	.	.	.	.	.	16ee-\	.
.	.	16f/JJ)yy	.	16g/JJ	.	.	.	.	.	.	.	.	16g/JJ	.
=129	=129	=129	=129	=129	=129	=129	=129	=129	=129	=129	=129	=129	=129	=129
8D\L	.	16f/LLyy	.	16g/LL	.	2ryy	.	.	.	.	2ryy	2ryy	16a-/LL	.
.	.	16f/yy	.	16f/	.	.	.	.	.	.	.	.	16g/	.
8E-\J	.	16e-/yy	.	16f/	.	.	.	.	.	.	.	.	16g/	.
.	.	16g/JJyy	.	16b-/JJ	.	.	.	.	.	.	.	.	16b-/JJ	.
!	!	!	!	!LO:TX:t=P:problem:mixed beam	!	!	!	!	!	!	!	!	!LO:TX:t=P:problem:mixed beam	!
8AA-/L	.	8a-/Lyy	.	8cc\L	.	.	.	.	.	.	.	.	8cc\L	.
8C/J	.	8G/Jyy	.	8d/J	.	.	.	.	.	.	.	.	8d/J	.
=130	=130	=130	=130	=130	=130	=130	=130	=130	=130	=130	=130	=130	=130	=130
8BB-/L	.	16G/LLyy	.	16e-/LL	.	2ryy	.	.	.	.	2ryy	2ryy	16ee-\LL	.
.	.	16B-/yy	.	16c/	.	.	.	.	.	.	.	.	16cc\	.
8BB-/	.	16G/yy	.	16e-/	.	.	.	.	.	.	.	.	16ee-\	.
.	.	16e-/JJyy	.	16g/JJ	.	.	.	.	.	.	.	.	16gg\JJ	.
8BB-/	6 4	8e-/Lyy	.	8g/L	.	.	.	.	.	.	.	.	8gg\L	.
8BB-/J	5 3	8d/Jyy	.	8f/J	.	.	.	.	.	.	.	.	8ff\J	.
=131	=131	=131	=131	=131	=131	=131	=131	=131	=131	=131	=131	=131	=131	=131
!	!	!	!	!LO:TX:a:t=t	!	!	!	!	!	!	!	!	!	!
8F\L	7 5	4cc\yy	.	4ee-\	.	2ryy	.	0r	.	.	2ryy	2ryy	4ee-\	.
8F\	.	.	.	.	.	.	.	.	.	.	.	.	.	.
8F\	.	16cc\LLyy	.	16ee-\LL	.	.	.	.	.	.	.	.	16ee-\LL	.
.	.	16b-\yy	.	16dd\	.	.	.	.	.	.	.	.	16dd\	.
8F\J	.	16an\yy	.	16cc\	.	.	.	.	.	.	.	.	16cc\	.
.	.	16b-\JJyy	.	16b-\JJ	.	.	.	.	.	.	.	.	16b-\JJ	.
!	!	!LO:LB:g=original	!	!	!	!	!	!	!	!	!	!	!	!
=132	=132	=132	=132	=132	=132	=132	=132	=132	=132	=132	=132	=132	=132	=132
8F\L	.	8an\yy	.	16an\LL	.	2ryy	.	.	.	.	2ryy	2ryy	16an\LL	.
.	.	.	.	16cc\JJ	.	.	.	.	.	.	.	.	16cc\JJ	.
8F\	.	4cc\yy	.	4ee-\	.	.	.	.	.	.	.	.	4ee-\	.
8F\	.	.	.	.	.	.	.	.	.	.	.	.	.	.
8F\J	.	8b-\yy	.	8dd\	.	.	.	.	.	.	.	.	8dd\	.
!LO:LB:g=original	!	!	!	!	!	!	!	!	!	!	!	!	!	!
=133	=133	=133	=133	=133	=133	=133	=133	=133	=133	=133	=133	=133	=133	=133
8F\L	7_ n_	(y<16b-/LLyy	.	16dd\LL	.	2ryy	.	.	.	.	2ryy	2ryy	16dd\LL	.
.	.	16a-/JJyy	.	16cc\JJ	.	.	.	.	.	.	.	.	16cc\JJ	.
8F\	.	4cc\)yy	.	4ee-\	.	.	.	.	.	.	.	.	4ee-\	.
8F\	.	.	.	.	.	.	.	.	.	.	.	.	.	.
!	!	!	!	!LO:TX:b:i:t=Vertatur citisſimae	!	!	!	!	!	!	!	!	!	!
8F\J	6 4	8b-\yy	.	8dd\	.	.	.	.	.	.	.	.	8dd\	.
!	!	!	!	!LO:PB:g=original	!	!	!	!	!	!	!	!	!LO:LB:g=original	!
=134	=134	=134	=134	=134	=134	=134	=134	=134	=134	=134	=134	=134	=134	=134
!	!	!LO:TX:t=P:problem:mixed beam	!	!	!	!	!	!	!	!	!	!	!	!
8r	.	16ee-X\LLyy	.	16gg\LL	.	2ryy	.	.	.	.	2ryy	2ryy	16gg\LL	.
.	.	16cc\yy	.	16ee-\	.	.	.	.	.	.	.	.	16ee-\	.
*	*	*	*	*	*	*	*	*	*	*	*	*	*tuplet	*
*	*	*	*	*rscale:1/2	*	*	*	*	*	*	*	*	*rscale:1/2	*
!	!	!	!	!LO:TUP:a:problem:klamra łukowa	!	!	!	!	!	!	!	!	!LO:TUP:a	!
8D\L	6	16b-\yy	.	24dd\L	.	.	.	.	.	.	.	.	24dd\L	.
.	.	.	.	24cc\	.	.	.	.	.	.	.	.	24cc\	.
.	.	16d/JJyy	.	.	.	.	.	.	.	.	.	.	.	.
.	.	.	.	24b-\JJJ	.	.	.	.	.	.	.	.	24b-\JJJ	.
*	*	*	*	*rscale:1	*	*	*	*	*	*	*	*	*rscale:1	*
8E-\	6 5	8An/Lyy	.	4ccT\	.	.	.	.	.	.	.	.	4ccT\	.
8F\J	n	8f/Jyy	.	.	.	.	.	.	.	.	.	.	.	.
=135	=135	=135	=135	=135	=135	=135	=135	=135	=135	=135	=135	=135	=135	=135
.	.	.	.	(<8qqcc/	.	.	.	.	.	.	.	.	8qqcc/	.
!	!	!	!	!	!	!	!	!	!	!	!	!	!LO:SIC:v:s=4b-\	!
8BB-/L	.	4d/yy	.	4b-\)	.	2ryy	.	0r	.	.	2ryy	2ryy	4cc\	.
16BB-/L	.	.	.	.	.	.	.	.	.	.	.	.	.	.
16C/JJ	.	.	.	.	.	.	.	.	.	.	.	.	.	.
8D/L	6	8ryy	.	8r	.	.	.	.	.	.	.	.	8r	.
8BB-/J	.	16g/LLyy	.	(16b-/LL	.	.	.	.	.	.	.	.	16bb-\LL	.
.	.	16f/JJyy	.	16a-X/JJ)	.	.	.	.	.	.	.	.	16aa-X\JJ	.
=136	=136	=136	=136	=136	=136	=136	=136	=136	=136	=136	=136	=136	=136	=136
8BB-/L	.	16e-/LLyy	.	16g/LL	.	2ryy	.	.	.	.	2ryy	2ryy	16gg\LL	.
.	.	16d/JJyy	.	16f/JJ	.	.	.	.	.	.	.	.	16ff\JJ	.
8BB-/	.	4f/yy	.	4a-/	.	.	.	.	.	.	.	.	4aa-\	.
8BB-/	.	.	.	.	.	.	.	.	.	.	.	.	.	.
8BB-/J	6 4	8e-/yy	.	8g/	.	.	.	.	.	.	.	.	8gg\	.
=137	=137	=137	=137	=137	=137	=137	=137	=137	=137	=137	=137	=137	=137	=137
4BB-/	6 5	16e-/LLyy	.	16g/LL	.	2ryy	.	.	.	.	2ryy	2ryy	16gg\LL	.
.	.	16d/JJyy	.	(16f/JJ	.	.	.	.	.	.	.	.	16ff\JJ	.
.	.	4f/yy	.	4a-/)	.	.	.	.	.	.	.	.	4aa-\	.
4r	.	.	.	.	.	.	.	.	.	.	.	.	.	.
.	.	16e-/LLyy	.	16g/LL	.	.	.	.	.	.	.	.	16gg\LL	.
.	.	16g/JJyy	.	16b-/JJ	.	.	.	.	.	.	.	.	16bb-\JJ	.
=138	=138	=138	=138	=138	=138	=138	=138	=138	=138	=138	=138	=138	=138	=138
8r	.	8a-/Lyy	.	8cc/L	.	2ryy	.	.	.	.	2ryy	2ryy	8ccc\L	.
!LO:TX:t=P:problem:mixed beam	!	!	!	!	!	!	!	!	!	!	!	!	!	!
8A-\L	6 5	8f/yy	.	16a-/L	.	.	.	.	.	.	.	.	16aa-\L	.
.	.	.	.	16f/JJ	.	.	.	.	.	.	.	.	16ff\JJ	.
8B-\	6	8e-/yy	.	16g/LL	.	.	.	.	.	.	.	.	16gg\LL	.
.	3	.	.	16e-/	.	.	.	.	.	.	.	.	16ee-\	.
8BB-/J	.	8d/Jyy	.	16f/	.	.	.	.	.	.	.	.	16ff\	.
.	.	.	.	16d/JJ	.	.	.	.	.	.	.	.	16dd\JJ	.
!	!	!LO:LB:g=original	!	!	!	!	!	!	!	!	!	!	!	!
=139	=139	=139	=139	=139	=139	=139	=139	=139	=139	=139	=139	=139	=139	=139
.	.	.	.	8qqf/	.	.	.	.	.	.	.	.	.	.
2E-;\	.	4e-yy 4G/yy	.	4e-;/	.	2ryy	.	2r	.	.	2ryy	2ryy	4ee-;\	.
!LO:TX:a:t=77.	!	!	!	!LO:TX:a:t=77.	!	!	!	!	!	!	!	!	!LO:TX:a:t=77.	!
!	!	!	!	!	!	!	!	!	!	!	!	!	!LO:TX:b:i:t=Verte Citiſsimo \nverte	!
.	.	4ryy	.	4r	.	.	.	.	.	.	.	.	4r	.
==	==	==	==	==	==	==	==	==	==	==	==	==	==	==
*-	*-	*-	*-	*-	*-	*-	*-	*-	*-	*-	*-	*-	*-	*-
!!!system-decoration: s1[(g1)][(g2)][(g3)]s8
!!!RDF**kern: < = below
!!!RDF**kern: | = vertical stroke
!!!ENC: Andrzej Gręziak
!!!END: 2020-04-28
!!!AIN: 1 bass 2 cor 1 oboe 1 organ 1 soprn 2 violn
!!!ENC: Marta Lawrence
!!!END: 2022-02-13
